;Generated with Cura_SteamEngine 13.10
M140 S70.000000
M109 T0 S230.000000
T0
M190 S70.000000

;Basic settings: Layer height: 0.3 Walls: 1 Fill: 30
;Print time: #P_TIME#
;Filament used: #F_AMNT#m #F_WGHT#g
;Filament cost: #F_COST#
G21        ;metric values
G90        ;absolute positioning
M107       ;start with the fan off
G28			 ;home
G1 Z200.0 F6000 ;move the platform down to 10mm
G1 X20 Y20 Z10.0 F6000 ;move the platform down to 10mm
G92 E0                  ;zero the extruded length
G1 F200 E5              ;extrude 3mm of feed stock
G92 E0                  ;zero the extruded length again
G1 F6000
M117 Printing...

;total_layers=140
;LAYER:0
M107
G0 F1500 X51.64 Y18.47 Z0.05
;TYPE:SKIRT
G1 F4800 E0.00000
G1 F1200 X53.51 Y17.50 E0.01756
G1 X128.81 Y29.03 E0.65092
G1 X130.31 Y30.52 E0.66848
G1 X142.60 Y105.69 E1.30186
G1 X141.65 Y107.58 E1.31942
G1 X73.96 Y142.50 E1.95279
G1 X71.87 Y142.18 E1.97036
G1 X17.74 Y88.59 E2.60373
G1 X17.40 Y86.51 E2.62130
G1 X51.64 Y18.47 E3.25467
G1 F4800 E-4.74533
G0 F1500 X54.49 Y21.69
;TYPE:WALL-INNER
G1 F4800 E3.25467
G1 F1200 X126.62 Y32.75 E3.86142
G1 X138.40 Y104.76 E4.46817
G1 X73.55 Y138.21 E5.07491
G1 X21.69 Y86.88 E5.68167
G1 X54.49 Y21.69 E6.28841
G0 F1500 X54.21 Y21.14
;TYPE:WALL-OUTER
G1 F1200 X127.05 Y32.31 E6.90120
G1 X138.95 Y105.04 E7.51399
G1 X73.45 Y138.82 E8.12678
G1 X21.08 Y86.97 E8.73958
G1 X54.21 Y21.14 E9.35237
G0 F1500 X54.80 Y21.92
;TYPE:FILL
G1 F1200 X137.76 Y104.89 E10.32801
G0 F1500 X138.19 Y104.61
G1 F1200 X55.63 Y22.04 E11.29886
G0 F1500 X56.47 Y22.17
G1 F1200 X138.05 Y103.76 E12.25827
G0 F1500 X137.92 Y102.91
G1 F1200 X57.30 Y22.30 E13.20623
G0 F1500 X58.14 Y22.43
G1 F1200 X137.78 Y102.07 E14.14274
G0 F1500 X137.64 Y101.22
G1 F1200 X58.97 Y22.56 E15.06781
G0 F1500 X59.81 Y22.68
G1 F1200 X137.50 Y100.38 E15.98143
G0 F1500 X137.36 Y99.53
G1 F1200 X60.64 Y22.81 E16.88361
G0 F1500 X61.48 Y22.94
G1 F1200 X137.22 Y98.69 E17.77435
G0 F1500 X137.09 Y97.84
G1 F1200 X62.31 Y23.07 E18.65363
G0 F1500 X63.15 Y23.20
G1 F1200 X136.95 Y97.00 E19.52146
G0 F1500 X136.81 Y96.15
G1 F1200 X63.98 Y23.32 E20.37785
G0 F1500 X64.82 Y23.45
G1 F1200 X136.67 Y95.31 E21.22278
G0 F1500 X136.53 Y94.46
G1 F1200 X65.65 Y23.58 E22.05628
G0 F1500 X66.49 Y23.71
G1 F1200 X136.40 Y93.61 E22.87833
G0 F1500 X136.26 Y92.77
G1 F1200 X67.32 Y23.84 E23.68894
G0 F1500 X68.16 Y23.96
G1 F1200 X136.12 Y91.92 E24.48810
G0 F1500 X135.98 Y91.08
G1 F1200 X68.99 Y24.09 E25.27581
G0 F1500 X69.83 Y24.22
G1 F1200 X135.84 Y90.23 E26.05208
G0 F1500 X135.70 Y89.39
G1 F1200 X70.66 Y24.35 E26.81690
G0 F1500 X71.50 Y24.48
G1 F1200 X135.57 Y88.54 E27.57028
G0 F1500 X135.43 Y87.70
G1 F1200 X72.33 Y24.60 E28.31221
G0 F1500 X73.17 Y24.73
G1 F1200 X135.29 Y86.85 E29.04269
G0 F1500 X135.15 Y86.01
G1 F1200 X74.00 Y24.86 E29.76173
G0 F1500 X74.84 Y24.99
G1 F1200 X135.01 Y85.16 E30.46932
G0 F1500 X134.87 Y84.32
G1 F1200 X75.67 Y25.12 E31.16547
G0 F1500 X76.51 Y25.24
G1 F1200 X134.74 Y83.47 E31.85017
G0 F1500 X134.60 Y82.63
G1 F1200 X77.34 Y25.37 E32.52342
G0 F1500 X78.18 Y25.50
G1 F1200 X134.46 Y81.78 E33.18523
G0 F1500 X134.32 Y80.93
G1 F1200 X79.01 Y25.63 E33.83560
G0 F1500 X78.75 Y25.74
G1 F1200 X78.57 Y25.56 E33.83770
G0 F1500 X79.85 Y25.76
G1 F1200 X134.18 Y80.09 E34.47661
G0 F1500 X134.04 Y79.24
G1 F1200 X80.69 Y25.88 E35.10408
G0 F1500 X81.35 Y25.99
G1 F1200 X81.53 Y26.16 E35.10618
G0 F1500 X81.52 Y26.01
G1 F1200 X133.91 Y78.40 E35.72221
G0 F1500 X133.77 Y77.55
G1 F1200 X82.36 Y26.14 E36.32678
G0 F1500 X83.19 Y26.27
G1 F1200 X133.63 Y76.71 E36.91992
G0 F1500 X133.49 Y75.86
G1 F1200 X84.03 Y26.40 E37.50160
G0 F1500 X84.14 Y26.41
G1 F1200 X84.32 Y26.59 E37.50372
G0 F1500 X84.86 Y26.52
G1 F1200 X133.35 Y75.02 E38.07396
G0 F1500 X133.22 Y74.17
G1 F1200 X85.69 Y26.65 E38.63275
G0 F1500 X86.53 Y26.78
G1 F1200 X133.08 Y73.33 E39.18010
G0 F1500 X132.94 Y72.48
G1 F1200 X87.36 Y26.91 E39.71601
G0 F1500 X87.10 Y27.02
G1 F1200 X86.92 Y26.84 E39.71812
G0 F1500 X88.20 Y27.04
G1 F1200 X132.80 Y71.64 E40.24259
G0 F1500 X132.66 Y70.79
G1 F1200 X89.04 Y27.16 E40.75560
G0 F1500 X89.70 Y27.27
G1 F1200 X89.88 Y27.44 E40.75771
G0 F1500 X89.87 Y27.29
G1 F1200 X132.52 Y69.94 E41.25926
G0 F1500 X132.38 Y69.10
G1 F1200 X90.71 Y27.42 E41.74938
G0 F1500 X91.54 Y27.55
G1 F1200 X132.25 Y68.25 E42.22804
G0 F1500 X132.11 Y67.41
G1 F1200 X92.38 Y27.68 E42.69527
G0 F1500 X92.48 Y27.69
G1 F1200 X92.66 Y27.87 E42.69738
G0 F1500 X93.21 Y27.80
G1 F1200 X131.97 Y66.56 E43.15315
G0 F1500 X131.83 Y65.72
G1 F1200 X94.05 Y27.93 E43.59748
G0 F1500 X94.88 Y28.06
G1 F1200 X131.69 Y64.87 E44.03036
G0 F1500 X131.56 Y64.03
G1 F1200 X95.72 Y28.19 E44.45180
G0 F1500 X95.44 Y28.30
G1 F1200 X95.27 Y28.12 E44.45391
G0 F1500 X96.55 Y28.32
G1 F1200 X131.42 Y63.18 E44.86390
G0 F1500 X131.28 Y62.34
G1 F1200 X97.39 Y28.44 E45.26245
G0 F1500 X98.05 Y28.54
G1 F1200 X98.23 Y28.72 E45.26458
G0 F1500 X98.22 Y28.57
G1 F1200 X131.14 Y61.49 E45.65168
G0 F1500 X131.00 Y60.65
G1 F1200 X99.06 Y28.70 E46.02734
G0 F1500 X99.89 Y28.83
G1 F1200 X130.86 Y59.80 E46.39155
G0 F1500 X130.73 Y58.95
G1 F1200 X100.73 Y28.96 E46.74431
G0 F1500 X100.83 Y28.97
G1 F1200 X101.01 Y29.15 E46.74642
G0 F1500 X101.56 Y29.08
G1 F1200 X130.59 Y58.11 E47.08773
G0 F1500 X130.45 Y57.26
G1 F1200 X102.40 Y29.21 E47.41761
G0 F1500 X103.23 Y29.34
G1 F1200 X130.31 Y56.42 E47.73605
G0 F1500 X130.17 Y55.57
G1 F1200 X104.07 Y29.47 E48.04304
G0 F1500 X103.79 Y29.58
G1 F1200 X103.61 Y29.40 E48.04514
G0 F1500 X104.90 Y29.59
G1 F1200 X130.04 Y54.73 E48.34069
G0 F1500 X129.90 Y53.88
G1 F1200 X105.74 Y29.72 E48.62478
G0 F1500 X106.40 Y29.82
G1 F1200 X106.58 Y30.00 E48.62688
G0 F1500 X106.57 Y29.85
G1 F1200 X129.76 Y53.04 E48.89953
G0 F1500 X129.62 Y52.19
G1 F1200 X107.41 Y29.98 E49.16073
G0 F1500 X108.24 Y30.11
G1 F1200 X129.48 Y51.35 E49.41049
G0 F1500 X129.34 Y50.50
G1 F1200 X109.08 Y30.23 E49.64880
G0 F1500 X109.18 Y30.25
G1 F1200 X109.36 Y30.43 E49.65090
G0 F1500 X109.91 Y30.36
G1 F1200 X129.21 Y49.66 E49.87778
G0 F1500 X129.07 Y48.81
G1 F1200 X110.75 Y30.49 E50.09320
G0 F1500 X111.58 Y30.62
G1 F1200 X128.93 Y47.97 E50.29718
G0 F1500 X128.79 Y47.12
G1 F1200 X112.42 Y30.75 E50.48972
G0 F1500 X112.14 Y30.86
G1 F1200 X111.96 Y30.68 E50.49183
G0 F1500 X113.25 Y30.88
G1 F1200 X128.65 Y46.27 E50.67292
G0 F1500 X128.51 Y45.43
G1 F1200 X114.09 Y31.00 E50.84256
G0 F1500 X114.74 Y31.10
G1 F1200 X114.92 Y31.28 E50.84466
G0 F1500 X114.92 Y31.13
G1 F1200 X128.38 Y44.58 E51.00285
G0 F1500 X128.24 Y43.74
G1 F1200 X115.76 Y31.26 E51.14960
G0 F1500 X116.59 Y31.39
G1 F1200 X128.10 Y42.89 E51.28490
G0 F1500 X127.96 Y42.05
G1 F1200 X117.43 Y31.51 E51.40877
G0 F1500 X117.53 Y31.53
G1 F1200 X117.70 Y31.71 E51.41087
G0 F1500 X118.26 Y31.64
G1 F1200 X127.82 Y41.20 E51.52329
G0 F1500 X127.69 Y40.36
G1 F1200 X119.10 Y31.77 E51.62427
G0 F1500 X119.93 Y31.90
G1 F1200 X127.55 Y39.51 E51.71379
G0 F1500 X127.41 Y38.67
G1 F1200 X120.77 Y32.03 E51.79187
G0 F1500 X120.49 Y32.13
G1 F1200 X120.31 Y31.95 E51.79398
G0 F1500 X121.60 Y32.15
G1 F1200 X127.27 Y37.82 E51.86062
G0 F1500 X127.13 Y36.98
G1 F1200 X122.44 Y32.28 E51.91582
G0 F1500 X123.09 Y32.38
G1 F1200 X123.27 Y32.56 E51.91792
G0 F1500 X123.27 Y32.41
G1 F1200 X126.99 Y36.13 E51.96166
G0 F1500 X126.86 Y35.28
G1 F1200 X124.11 Y32.54 E51.99396
G0 F1500 X124.94 Y32.66
G1 F1200 X126.72 Y34.44 E52.01483
G0 F1500 X126.58 Y33.59
G1 F1200 X125.78 Y32.79 E52.02425
G0 F1500 X125.87 Y32.81
G1 F1200 X126.05 Y32.99 E52.02635
G0 F1500 X54.41 Y22.24
G1 F1200 X137.30 Y105.13 E53.00105
G0 F1500 X136.83 Y105.37
G1 F1200 X54.17 Y22.71 E53.97305
G0 F1500 X53.94 Y23.18
G1 F1200 X136.37 Y105.61 E54.94235
G0 F1500 X135.90 Y105.85
G1 F1200 X53.70 Y23.65 E55.90895
G0 F1500 X53.46 Y24.12
G1 F1200 X135.43 Y106.09 E56.87285
G0 F1500 X134.97 Y106.33
G1 F1200 X53.23 Y24.59 E57.83405
G0 F1500 X52.99 Y25.06
G1 F1200 X134.50 Y106.57 E58.79254
G0 F1500 X134.03 Y106.81
G1 F1200 X52.75 Y25.53 E59.74834
G0 F1500 X52.52 Y26.00
G1 F1200 X133.57 Y107.05 E60.70143
G0 F1500 X133.10 Y107.29
G1 F1200 X52.28 Y26.47 E61.65182
G0 F1500 X52.04 Y26.94
G1 F1200 X132.63 Y107.53 E62.59950
G0 F1500 X132.17 Y107.77
G1 F1200 X51.81 Y27.41 E63.54449
G0 F1500 X51.57 Y27.88
G1 F1200 X131.70 Y108.01 E64.48678
G0 F1500 X131.24 Y108.25
G1 F1200 X51.33 Y28.35 E65.42636
G0 F1500 X51.10 Y28.82
G1 F1200 X130.77 Y108.49 E66.36324
G0 F1500 X130.30 Y108.74
G1 F1200 X50.86 Y29.29 E67.29742
G0 F1500 X50.62 Y29.76
G1 F1200 X129.84 Y108.98 E68.22890
G0 F1500 X129.37 Y109.22
G1 F1200 X50.39 Y30.23 E69.15768
G0 F1500 X50.15 Y30.70
G1 F1200 X128.90 Y109.46 E70.08375
G0 F1500 X128.44 Y109.70
G1 F1200 X49.91 Y31.17 E71.00713
G0 F1500 X49.68 Y31.65
G1 F1200 X127.97 Y109.94 E71.92780
G0 F1500 X127.50 Y110.18
G1 F1200 X49.44 Y32.12 E72.84577
G0 F1500 X49.20 Y32.59
G1 F1200 X127.04 Y110.42 E73.76104
G0 F1500 X126.57 Y110.66
G1 F1200 X48.97 Y33.06 E74.67360
G0 F1500 X48.73 Y33.53
G1 F1200 X126.10 Y110.90 E75.58347
G0 F1500 X125.64 Y111.14
G1 F1200 X48.49 Y34.00 E76.49065
G0 F1500 X48.26 Y34.47
G1 F1200 X125.17 Y111.38 E77.39511
G0 F1500 X124.70 Y111.62
G1 F1200 X48.02 Y34.94 E78.29687
G0 F1500 X47.78 Y35.41
G1 F1200 X124.24 Y111.86 E79.19593
G0 F1500 X123.77 Y112.10
G1 F1200 X47.55 Y35.88 E80.09229
G0 F1500 X47.31 Y36.35
G1 F1200 X123.31 Y112.35 E80.98596
G0 F1500 X122.84 Y112.59
G1 F1200 X47.07 Y36.82 E81.87692
G0 F1500 X46.84 Y37.29
G1 F1200 X122.37 Y112.83 E82.76518
G0 F1500 X121.91 Y113.07
G1 F1200 X46.60 Y37.76 E83.65073
G0 F1500 X46.36 Y38.23
G1 F1200 X121.44 Y113.31 E84.53358
G0 F1500 X120.97 Y113.55
G1 F1200 X46.13 Y38.70 E85.41373
G0 F1500 X45.89 Y39.17
G1 F1200 X120.51 Y113.79 E86.29117
G0 F1500 X120.04 Y114.03
G1 F1200 X45.65 Y39.64 E87.16592
G0 F1500 X45.41 Y40.11
G1 F1200 X119.57 Y114.27 E88.03797
G0 F1500 X119.11 Y114.51
G1 F1200 X45.18 Y40.58 E88.90730
G0 F1500 X44.94 Y41.05
G1 F1200 X118.64 Y114.75 E89.77395
G0 F1500 X118.17 Y114.99
G1 F1200 X44.70 Y41.52 E90.63789
G0 F1500 X44.47 Y41.99
G1 F1200 X117.71 Y115.23 E91.49912
G0 F1500 X117.24 Y115.47
G1 F1200 X44.23 Y42.46 E92.35766
G0 F1500 X43.99 Y42.93
G1 F1200 X116.78 Y115.71 E93.21349
G0 F1500 X116.31 Y115.95
G1 F1200 X43.76 Y43.41 E94.06662
G0 F1500 X43.52 Y43.88
G1 F1200 X115.84 Y116.20 E94.91706
G0 F1500 X115.38 Y116.44
G1 F1200 X43.28 Y44.34 E95.76479
G0 F1500 X43.05 Y44.82
G1 F1200 X114.91 Y116.68 E96.60982
G0 F1500 X114.44 Y116.92
G1 F1200 X42.81 Y45.29 E97.45215
G0 F1500 X42.57 Y45.76
G1 F1200 X113.98 Y117.16 E98.29178
G0 F1500 X113.51 Y117.40
G1 F1200 X42.34 Y46.23 E99.12870
G0 F1500 X42.10 Y46.70
G1 F1200 X113.04 Y117.64 E99.96292
G0 F1500 X112.58 Y117.88
G1 F1200 X41.86 Y47.17 E100.79444
G0 F1500 X41.63 Y47.64
G1 F1200 X112.11 Y118.12 E101.62326
G0 F1500 X111.64 Y118.36
G1 F1200 X41.39 Y48.11 E102.44938
G0 F1500 X41.16 Y48.58
G1 F1200 X111.18 Y118.60 E103.27279
G0 F1500 X110.71 Y118.84
G1 F1200 X40.92 Y49.05 E104.09350
G0 F1500 X40.68 Y49.52
G1 F1200 X110.25 Y119.08 E104.91151
G0 F1500 X109.78 Y119.32
G1 F1200 X40.44 Y49.99 E105.72683
G0 F1500 X40.21 Y50.46
G1 F1200 X109.31 Y119.56 E106.53944
G0 F1500 X108.85 Y119.81
G1 F1200 X39.97 Y50.93 E107.34934
G0 F1500 X39.73 Y51.40
G1 F1200 X108.38 Y120.05 E108.15655
G0 F1500 X107.91 Y120.29
G1 F1200 X39.50 Y51.87 E108.96106
G0 F1500 X39.26 Y52.34
G1 F1200 X107.45 Y120.53 E109.76287
G0 F1500 X106.98 Y120.77
G1 F1200 X39.02 Y52.81 E110.56197
G0 F1500 X38.79 Y53.28
G1 F1200 X106.51 Y121.01 E111.35836
G0 F1500 X106.05 Y121.25
G1 F1200 X38.55 Y53.75 E112.15206
G0 F1500 X38.31 Y54.22
G1 F1200 X105.58 Y121.49 E112.94307
G0 F1500 X105.11 Y121.73
G1 F1200 X38.08 Y54.69 E113.73136
G0 F1500 X37.84 Y55.16
G1 F1200 X104.65 Y121.97 E114.51696
G0 F1500 X104.18 Y122.21
G1 F1200 X37.60 Y55.63 E115.29986
G0 F1500 X37.37 Y56.10
G1 F1200 X103.71 Y122.45 E116.08005
G0 F1500 X103.25 Y122.69
G1 F1200 X37.13 Y56.58 E116.85754
G0 F1500 X36.89 Y57.05
G1 F1200 X102.78 Y122.93 E117.63232
G0 F1500 X102.31 Y123.17
G1 F1200 X36.66 Y57.52 E118.40440
G0 F1500 X36.42 Y57.99
G1 F1200 X101.85 Y123.42 E119.17379
G0 F1500 X101.38 Y123.66
G1 F1200 X36.18 Y58.46 E119.94048
G0 F1500 X35.95 Y58.93
G1 F1200 X100.92 Y123.90 E120.70445
G0 F1500 X100.45 Y124.14
G1 F1200 X35.71 Y59.40 E121.46573
G0 F1500 X35.47 Y59.87
G1 F1200 X99.98 Y124.38 E122.22431
G0 F1500 X99.52 Y124.62
G1 F1200 X35.24 Y60.34 E122.98018
G0 F1500 X35.00 Y60.81
G1 F1200 X99.05 Y124.86 E123.73336
G0 F1500 X98.58 Y125.10
G1 F1200 X34.76 Y61.28 E124.48383
G0 F1500 X34.53 Y61.75
G1 F1200 X98.12 Y125.34 E125.23160
G0 F1500 X97.65 Y125.58
G1 F1200 X34.29 Y62.22 E125.97667
G0 F1500 X34.05 Y62.69
G1 F1200 X97.18 Y125.82 E126.71904
G0 F1500 X96.72 Y126.06
G1 F1200 X33.82 Y63.16 E127.45870
G0 F1500 X33.58 Y63.63
G1 F1200 X96.25 Y126.30 E128.19567
G0 F1500 X95.78 Y126.54
G1 F1200 X33.34 Y64.10 E128.92992
G0 F1500 X33.11 Y64.57
G1 F1200 X95.32 Y126.78 E129.66148
G0 F1500 X94.85 Y127.03
G1 F1200 X32.87 Y65.04 E130.39035
G0 F1500 X32.63 Y65.51
G1 F1200 X94.39 Y127.27 E131.11650
G0 F1500 X93.92 Y127.51
G1 F1200 X32.40 Y65.98 E131.83995
G0 F1500 X32.16 Y66.45
G1 F1200 X93.45 Y127.75 E132.56071
G0 F1500 X92.98 Y127.99
G1 F1200 X31.92 Y66.92 E133.27876
G0 F1500 X31.69 Y67.39
G1 F1200 X92.52 Y128.23 E133.99411
G0 F1500 X92.05 Y128.47
G1 F1200 X31.45 Y67.86 E134.70677
G0 F1500 X31.21 Y68.34
G1 F1200 X91.59 Y128.71 E135.41671
G0 F1500 X91.12 Y128.95
G1 F1200 X30.98 Y68.81 E136.12395
G0 F1500 X30.74 Y69.28
G1 F1200 X90.65 Y129.19 E136.82848
G0 F1500 X90.19 Y129.43
G1 F1200 X30.50 Y69.75 E137.53032
G0 F1500 X30.27 Y70.22
G1 F1200 X89.72 Y129.67 E138.22946
G0 F1500 X89.25 Y129.91
G1 F1200 X30.03 Y70.69 E138.92590
G0 F1500 X29.79 Y71.16
G1 F1200 X88.79 Y130.15 E139.61963
G0 F1500 X88.32 Y130.39
G1 F1200 X29.56 Y71.63 E140.31066
G0 F1500 X29.32 Y72.10
G1 F1200 X87.86 Y130.63 E140.99900
G0 F1500 X87.39 Y130.88
G1 F1200 X29.08 Y72.57 E141.68464
G0 F1500 X28.85 Y73.04
G1 F1200 X86.92 Y131.12 E142.36755
G0 F1500 X86.45 Y131.36
G1 F1200 X28.61 Y73.51 E143.04778
G0 F1500 X28.37 Y73.98
G1 F1200 X85.99 Y131.60 E143.72531
G0 F1500 X85.52 Y131.84
G1 F1200 X28.14 Y74.45 E144.40013
G0 F1500 X27.90 Y74.92
G1 F1200 X85.06 Y132.08 E145.07225
G0 F1500 X84.59 Y132.32
G1 F1200 X27.66 Y75.39 E145.74167
G0 F1500 X27.43 Y75.86
G1 F1200 X84.12 Y132.56 E146.40839
G0 F1500 X84.21 Y132.51
G1 F1200 X84.10 Y132.40 E146.40968
G0 F1500 X83.66 Y132.80
G1 F1200 X27.19 Y76.33 E147.07370
G0 F1500 X26.95 Y76.80
G1 F1200 X83.19 Y133.04 E147.73502
G0 F1500 X82.72 Y133.28
G1 F1200 X26.72 Y77.27 E148.39363
G0 F1500 X26.48 Y77.74
G1 F1200 X82.26 Y133.52 E149.04953
G0 F1500 X82.55 Y133.20
G1 F1200 X82.66 Y133.31 E149.05084
G0 F1500 X81.79 Y133.76
G1 F1200 X26.24 Y78.22 E149.70404
G0 F1500 X26.00 Y78.69
G1 F1200 X81.32 Y134.00 E150.35455
G0 F1500 X81.10 Y134.12
G1 F1200 X80.99 Y134.01 E150.35585
G0 F1500 X80.86 Y134.24
G1 F1200 X25.77 Y79.16 E151.00366
G0 F1500 X25.53 Y79.63
G1 F1200 X80.39 Y134.49 E151.64876
G0 F1500 X79.92 Y134.72
G1 F1200 X25.30 Y80.10 E152.29115
G0 F1500 X25.06 Y80.57
G1 F1200 X79.46 Y134.97 E152.93085
G0 F1500 X79.55 Y134.92
G1 F1200 X79.44 Y134.81 E152.93215
G0 F1500 X78.99 Y135.21
G1 F1200 X24.82 Y81.04 E153.56915
G0 F1500 X24.59 Y81.51
G1 F1200 X78.53 Y135.45 E154.20345
G0 F1500 X78.06 Y135.69
G1 F1200 X24.35 Y81.98 E154.83503
G0 F1500 X24.11 Y82.45
G1 F1200 X77.59 Y135.93 E155.46392
G0 F1500 X77.88 Y135.61
G1 F1200 X78.00 Y135.72 E155.46523
G0 F1500 X77.13 Y136.17
G1 F1200 X23.88 Y82.92 E156.09142
G0 F1500 X23.64 Y83.39
G1 F1200 X76.66 Y136.41 E156.71491
G0 F1500 X76.44 Y136.52
G1 F1200 X76.33 Y136.41 E156.71622
G0 F1500 X76.19 Y136.65
G1 F1200 X23.40 Y83.86 E157.33700
G0 F1500 X23.16 Y84.33
G1 F1200 X75.73 Y136.89 E157.95508
G0 F1500 X75.26 Y137.13
G1 F1200 X22.93 Y84.80 E158.57046
G0 F1500 X22.69 Y85.27
G1 F1200 X74.79 Y137.37 E159.18315
G0 F1500 X74.89 Y137.32
G1 F1200 X74.78 Y137.21 E159.18446
G0 F1500 X74.33 Y137.61
G1 F1200 X22.45 Y85.74 E159.79443
G0 F1500 X22.22 Y86.21
G1 F1200 X73.86 Y137.85 E160.40171
G0 F1500 X45.48 Y110.18
G1 F1200 X21.98 Y86.68 E160.67798
;LAYER:1
;TYPE:CUSTOM
;Changing bed temperature to 70.0 degrees
M140 S70.0
;Changing nozzle temperature to 220.0 degrees
M104 S220.0
M106 S255
G0 F6000 X21.69 Y86.88 Z0.35
;TYPE:WALL-INNER
