;Generated with Cura_SteamEngine 13.10
M140 S70.000000
M109 T0 S230.000000
T0
M190 S70.000000

;Basic settings: Layer height: 0.3 Walls: 1 Fill: 30
;Print time: #P_TIME#
;Filament used: #F_AMNT#m #F_WGHT#g
;Filament cost: #F_COST#
G21        ;metric values
G90        ;absolute positioning
M107       ;start with the fan off
G28			 ;home
G1 Z200.0 F6000 ;move the platform down to 10mm
G1 X20 Y20 Z10.0 F6000 ;move the platform down to 10mm
G92 E0                  ;zero the extruded length
G1 F200 E5              ;extrude 3mm of feed stock
G92 E0                  ;zero the extruded length again
G1 F6000
M117 Printing...

;total_layers=87
;LAYER:0
M107
G0 F1500 X34.75 Y36.65 Z0.05
;TYPE:SKIRT
G1 F4800 E0.00000
G1 F1200 X36.65 Y34.75 E0.02238
G1 X123.35 Y34.75 E0.74323
G1 X125.25 Y36.65 E0.76562
G1 X125.25 Y123.35 E1.48647
G1 X123.35 Y125.25 E1.50886
G1 X36.65 Y125.25 E2.22972
G1 X34.75 Y123.35 E2.25210
G1 X34.75 Y36.65 E2.97296
G1 F4800 E-5.02704
G0 F1500 X38.75 Y38.75
;TYPE:WALL-INNER
G1 F4800 E2.97296
G1 F1200 X121.25 Y38.75 E3.65895
G1 X121.25 Y121.25 E4.34494
G1 X38.75 Y121.25 E5.03093
G1 X38.75 Y38.75 E5.71692
G0 F1500 X65.37 Y65.30
G1 F1200 X65.30 Y65.37 E5.71773
G1 X62.06 Y69.58 E5.76193
G1 X62.01 Y69.67 E5.76276
G1 X59.98 Y74.58 E5.80697
G1 X59.95 Y74.68 E5.80779
G1 X59.26 Y79.95 E5.85200
G1 X59.26 Y80.05 E5.85282
G1 X59.95 Y85.32 E5.89703
G1 X59.98 Y85.42 E5.89785
G1 X62.01 Y90.33 E5.94206
G1 X62.06 Y90.41 E5.94288
G1 X65.37 Y94.70 E5.98795
G1 X69.59 Y97.94 E6.03211
G1 X69.67 Y97.99 E6.03293
G1 X74.58 Y100.02 E6.07714
G1 X74.68 Y100.05 E6.07796
G1 X79.95 Y100.74 E6.12217
G1 X80.05 Y100.74 E6.12300
G1 X85.33 Y100.05 E6.16726
G1 X85.42 Y100.02 E6.16808
G1 X90.33 Y97.98 E6.21228
G1 X90.42 Y97.93 E6.21310
G1 X94.63 Y94.70 E6.25727
G1 X94.70 Y94.63 E6.25808
G1 X97.94 Y90.41 E6.30229
G1 X97.99 Y90.33 E6.30312
G1 X100.02 Y85.42 E6.34733
G1 X100.05 Y85.32 E6.34814
G1 X100.74 Y80.05 E6.39235
G1 X100.74 Y79.95 E6.39317
G1 X100.05 Y74.68 E6.43739
G1 X100.02 Y74.58 E6.43821
G1 X97.99 Y69.67 E6.48242
G1 X97.94 Y69.58 E6.48324
G1 X94.70 Y65.36 E6.52747
G1 X94.63 Y65.29 E6.52832
G1 X90.57 Y62.18 E6.57085
G1 X90.47 Y62.13 E6.57179
G1 X88.78 Y61.50 E6.58676
G1 X87.10 Y61.00 E6.60131
G1 X85.40 Y60.60 E6.61588
G1 X83.68 Y60.31 E6.63038
G1 X81.96 Y60.13 E6.64473
G1 X80.19 Y60.06 E6.65948
G1 X78.43 Y60.10 E6.67410
G1 X76.69 Y60.24 E6.68865
G1 X74.96 Y60.50 E6.70319
G1 X73.25 Y60.87 E6.71776
G1 X71.53 Y61.35 E6.73261
G1 X69.69 Y61.99 E6.74878
G1 X69.58 Y62.05 E6.74979
G1 X65.37 Y65.30 E6.79405
G0 F1500 X65.70 Y65.67
;TYPE:WALL-OUTER
G1 F1200 X62.46 Y69.89 E6.83825
G1 X60.45 Y74.74 E6.88192
G1 X60.44 Y74.78 E6.88219
G1 X59.76 Y79.98 E6.92587
G1 X59.76 Y80.02 E6.92614
G1 X60.44 Y85.22 E6.96981
G1 X60.45 Y85.25 E6.97008
G1 X62.48 Y90.13 E7.01401
G1 X65.70 Y94.33 E7.05800
G1 X69.89 Y97.54 E7.10188
G1 X74.74 Y99.55 E7.14555
G1 X74.78 Y99.56 E7.14582
G1 X79.98 Y100.24 E7.18950
G1 X80.02 Y100.24 E7.18977
G1 X85.23 Y99.55 E7.23349
G1 X85.26 Y99.55 E7.23376
G1 X90.14 Y97.52 E7.27769
G1 X94.32 Y94.30 E7.32158
G1 X97.54 Y90.11 E7.36552
G1 X99.55 Y85.25 E7.40919
G1 X99.56 Y85.22 E7.40945
G1 X100.24 Y80.02 E7.45312
G1 X100.24 Y79.98 E7.45340
G1 X99.56 Y74.78 E7.49708
G1 X99.55 Y74.74 E7.49734
G1 X97.52 Y69.86 E7.54128
G1 X94.30 Y65.67 E7.58523
G1 X90.26 Y62.58 E7.62752
G1 X88.63 Y61.98 E7.64199
G1 X86.98 Y61.48 E7.65629
G1 X85.31 Y61.09 E7.67059
G1 X83.62 Y60.81 E7.68483
G1 X81.92 Y60.63 E7.69904
G1 X80.20 Y60.56 E7.71334
G1 X78.47 Y60.59 E7.72776
G1 X76.75 Y60.74 E7.74206
G1 X75.05 Y60.99 E7.75634
G1 X73.37 Y61.35 E7.77064
G1 X71.68 Y61.82 E7.78523
G1 X69.86 Y62.47 E7.80133
G1 X65.70 Y65.67 E7.84499
G0 F1500 X65.45 Y65.43
G0 X38.60 Y38.51
G0 X38.25 Y38.25
G1 F1200 X121.75 Y38.25 E8.53929
G1 X121.75 Y121.75 E9.23360
G1 X38.25 Y121.75 E9.92791
G1 X38.25 Y38.25 E10.62221
G0 F1500 X38.92 Y39.28
;TYPE:FILL
G1 F1200 X65.05 Y65.40 E10.92941
G0 F1500 X65.40 Y65.05
G1 F1200 X39.28 Y38.92 E11.23660
G0 F1500 X39.98 Y38.92
G1 F1200 X65.80 Y64.74 E11.54018
G0 F1500 X66.20 Y64.43
G1 F1200 X40.69 Y38.92 E11.84013
G0 F1500 X41.40 Y38.92
G1 F1200 X66.60 Y64.13 E12.13648
G0 F1500 X67.00 Y63.82
G1 F1200 X42.11 Y38.92 E12.42920
G0 F1500 X42.81 Y38.92
G1 F1200 X67.40 Y63.51 E12.71831
G0 F1500 X67.80 Y63.20
G1 F1200 X43.52 Y38.92 E13.00380
G0 F1500 X44.23 Y38.92
G1 F1200 X68.20 Y62.90 E13.28567
G0 F1500 X68.60 Y62.59
G1 F1200 X44.94 Y38.92 E13.56392
G0 F1500 X45.64 Y38.92
G1 F1200 X69.00 Y62.28 E13.83856
G0 F1500 X69.40 Y61.97
G1 F1200 X46.35 Y38.92 E14.10958
G0 F1500 X47.06 Y38.92
G1 F1200 X69.87 Y61.74 E14.37789
G0 F1500 X70.40 Y61.56
G1 F1200 X47.76 Y38.92 E14.64405
G0 F1500 X48.47 Y38.92
G1 F1200 X70.92 Y61.37 E14.90805
G0 F1500 X71.44 Y61.19
G1 F1200 X49.18 Y38.92 E15.16988
G0 F1500 X49.88 Y38.92
G1 F1200 X71.99 Y61.03 E15.42987
G0 F1500 X72.55 Y60.88
G1 F1200 X50.59 Y38.92 E15.68802
G0 F1500 X51.30 Y38.92
G1 F1200 X73.10 Y60.72 E15.94435
G0 F1500 X73.67 Y60.59
G1 F1200 X52.01 Y38.92 E16.19916
G0 F1500 X52.71 Y38.92
G1 F1200 X74.26 Y60.47 E16.45251
G0 F1500 X74.84 Y60.34
G1 F1200 X53.42 Y38.92 E16.70440
G0 F1500 X54.13 Y38.92
G1 F1200 X75.45 Y60.25 E16.95516
G0 F1500 X76.07 Y60.16
G1 F1200 X54.83 Y38.92 E17.20485
G0 F1500 X55.54 Y38.92
G1 F1200 X76.69 Y60.07 E17.45350
G0 F1500 X77.34 Y60.01
G1 F1200 X56.25 Y38.92 E17.70149
G0 F1500 X56.96 Y38.92
G1 F1200 X77.99 Y59.96 E17.94882
G0 F1500 X78.65 Y59.91
G1 F1200 X57.66 Y38.92 E18.19565
G0 F1500 X58.37 Y38.92
G1 F1200 X79.34 Y59.90 E18.44231
G0 F1500 X80.04 Y59.88
G1 F1200 X59.08 Y38.92 E18.68878
G0 F1500 X59.78 Y38.92
G1 F1200 X80.77 Y59.91 E18.93550
G0 F1500 X81.50 Y59.94
G1 F1200 X60.49 Y38.92 E19.18259
G0 F1500 X61.20 Y38.92
G1 F1200 X82.26 Y59.98 E19.43025
G0 F1500 X83.05 Y60.07
G1 F1200 X61.91 Y38.92 E19.67888
G0 F1500 X62.61 Y38.92
G1 F1200 X83.85 Y60.16 E19.92861
G0 F1500 X84.70 Y60.30
G1 F1200 X63.32 Y38.92 E20.18002
G0 F1500 X64.03 Y38.92
G1 F1200 X85.56 Y60.46 E20.43321
G0 F1500 X86.48 Y60.67
G1 F1200 X64.73 Y38.92 E20.68894
G0 F1500 X65.44 Y38.92
G1 F1200 X87.43 Y60.91 E20.94751
G0 F1500 X88.44 Y61.22
G1 F1200 X66.15 Y38.92 E21.20964
G0 F1500 X66.86 Y38.92
G1 F1200 X89.52 Y61.59 E21.47614
G0 F1500 X90.70 Y62.06
G1 F1200 X67.56 Y38.92 E21.74824
G0 F1500 X68.27 Y38.92
G1 F1200 X93.73 Y64.39 E22.04770
G0 F1500 X95.60 Y66.25
G1 F1200 X121.07 Y91.73 E22.34725
G0 F1500 X121.07 Y92.44
G1 F1200 X97.93 Y69.30 E22.61937
G0 F1500 X98.58 Y70.65
G1 F1200 X121.07 Y93.14 E22.88389
G0 F1500 X121.07 Y93.85
G1 F1200 X99.08 Y71.86 E23.14253
G0 F1500 X99.58 Y73.06
G1 F1200 X121.07 Y94.56 E23.39528
G0 F1500 X121.07 Y95.26
G1 F1200 X100.08 Y74.27 E23.64216
G0 F1500 X100.29 Y75.19
G1 F1200 X121.07 Y95.97 E23.88657
G0 F1500 X121.07 Y96.68
G1 F1200 X100.40 Y76.00 E24.12973
G0 F1500 X100.50 Y76.81
G1 F1200 X121.07 Y97.39 E24.37163
G0 F1500 X121.07 Y98.09
G1 F1200 X100.61 Y77.63 E24.61227
G0 F1500 X100.72 Y78.44
G1 F1200 X121.07 Y98.80 E24.85164
G0 F1500 X121.07 Y99.51
G1 F1200 X100.83 Y79.26 E25.08975
G0 F1500 X100.92 Y80.06
G1 F1200 X121.07 Y100.21 E25.32681
G0 F1500 X121.07 Y100.92
G1 F1200 X100.83 Y80.68 E25.56483
G0 F1500 X100.75 Y81.31
G1 F1200 X121.07 Y101.63 E25.80381
G0 F1500 X121.07 Y102.34
G1 F1200 X100.67 Y81.93 E26.04377
G0 F1500 X100.59 Y82.56
G1 F1200 X121.07 Y103.04 E26.28469
G0 F1500 X121.07 Y103.75
G1 F1200 X100.50 Y83.18 E26.52659
G0 F1500 X100.42 Y83.80
G1 F1200 X121.07 Y104.46 E26.76945
G0 F1500 X121.07 Y105.16
G1 F1200 X100.34 Y84.43 E27.01328
G0 F1500 X100.26 Y85.05
G1 F1200 X121.07 Y105.87 E27.25807
G0 F1500 X121.07 Y106.58
G1 F1200 X100.12 Y85.63 E27.50447
G0 F1500 X99.91 Y86.13
G1 F1200 X121.07 Y107.29 E27.75329
G0 F1500 X121.07 Y107.99
G1 F1200 X99.71 Y86.63 E28.00454
G0 F1500 X99.50 Y87.13
G1 F1200 X121.07 Y108.70 E28.25823
G0 F1500 X121.07 Y109.41
G1 F1200 X99.29 Y87.63 E28.51436
G0 F1500 X99.09 Y88.13
G1 F1200 X121.07 Y110.11 E28.77292
G0 F1500 X121.07 Y110.82
G1 F1200 X98.88 Y88.63 E29.03393
G0 F1500 X98.67 Y89.13
G1 F1200 X121.07 Y111.53 E29.29737
G0 F1500 X121.07 Y112.24
G1 F1200 X98.46 Y89.63 E29.56325
G0 F1500 X98.26 Y90.13
G1 F1200 X121.07 Y112.94 E29.83156
G0 F1500 X121.07 Y113.65
G1 F1200 X98.02 Y90.59 E30.10270
G0 F1500 X97.71 Y90.99
G1 F1200 X121.07 Y114.36 E30.37746
G0 F1500 X121.07 Y115.06
G1 F1200 X97.40 Y91.39 E30.65582
G0 F1500 X97.09 Y91.79
G1 F1200 X121.07 Y115.77 E30.93779
G0 F1500 X121.07 Y116.48
G1 F1200 X96.79 Y92.19 E31.22338
G0 F1500 X96.48 Y92.59
G1 F1200 X121.07 Y117.19 E31.51257
G0 F1500 X121.07 Y117.89
G1 F1200 X96.17 Y92.99 E31.80536
G0 F1500 X95.87 Y93.39
G1 F1200 X121.07 Y118.60 E32.10177
G0 F1500 X121.07 Y119.31
G1 F1200 X95.56 Y93.79 E32.40178
G0 F1500 X95.25 Y94.19
G1 F1200 X121.07 Y120.01 E32.70540
G0 F1500 X121.07 Y120.72
G1 F1200 X94.95 Y94.59 E33.01264
G0 F1500 X94.59 Y94.95
G1 F1200 X120.72 Y121.07 E33.31986
G0 F1500 X120.01 Y121.07
G1 F1200 X94.19 Y95.25 E33.62347
G0 F1500 X93.79 Y95.56
G1 F1200 X119.31 Y121.07 E33.92348
G0 F1500 X118.60 Y121.07
G1 F1200 X93.39 Y95.87 E34.21988
G0 F1500 X92.99 Y96.18
G1 F1200 X117.89 Y121.07 E34.51266
G0 F1500 X117.19 Y121.07
G1 F1200 X92.59 Y96.48 E34.80183
G0 F1500 X92.19 Y96.79
G1 F1200 X116.48 Y121.07 E35.08740
G0 F1500 X115.77 Y121.07
G1 F1200 X91.79 Y97.10 E35.36936
G0 F1500 X91.39 Y97.40
G1 F1200 X115.06 Y121.07 E35.64771
G0 F1500 X114.36 Y121.07
G1 F1200 X90.99 Y97.71 E35.92244
G0 F1500 X90.59 Y98.02
G1 F1200 X113.65 Y121.07 E36.19357
G0 F1500 X112.94 Y121.07
G1 F1200 X90.13 Y98.26 E36.46187
G0 F1500 X89.63 Y98.47
G1 F1200 X112.24 Y121.07 E36.72773
G0 F1500 X111.53 Y121.07
G1 F1200 X89.13 Y98.67 E36.99116
G0 F1500 X88.63 Y98.88
G1 F1200 X110.82 Y121.07 E37.25216
G0 F1500 X110.11 Y121.07
G1 F1200 X88.13 Y99.09 E37.51072
G0 F1500 X87.63 Y99.29
G1 F1200 X109.41 Y121.07 E37.76684
G0 F1500 X108.70 Y121.07
G1 F1200 X87.13 Y99.50 E38.02052
G0 F1500 X86.63 Y99.71
G1 F1200 X107.99 Y121.07 E38.27177
G0 F1500 X107.29 Y121.07
G1 F1200 X86.13 Y99.92 E38.52058
G0 F1500 X85.63 Y100.12
G1 F1200 X106.58 Y121.07 E38.76695
G0 F1500 X105.87 Y121.07
G1 F1200 X85.05 Y100.26 E39.01175
G0 F1500 X84.43 Y100.34
G1 F1200 X105.16 Y121.07 E39.25557
G0 F1500 X104.46 Y121.07
G1 F1200 X83.80 Y100.42 E39.49844
G0 F1500 X83.18 Y100.50
G1 F1200 X103.75 Y121.07 E39.74032
G0 F1500 X103.04 Y121.07
G1 F1200 X82.56 Y100.59 E39.98125
G0 F1500 X81.93 Y100.67
G1 F1200 X102.34 Y121.07 E40.22119
G0 F1500 X101.63 Y121.07
G1 F1200 X81.31 Y100.75 E40.46017
G0 F1500 X80.68 Y100.83
G1 F1200 X100.92 Y121.07 E40.69817
G0 F1500 X100.21 Y121.07
G1 F1200 X80.06 Y100.92 E40.93523
G0 F1500 X79.26 Y100.83
G1 F1200 X99.51 Y121.07 E41.17333
G0 F1500 X98.80 Y121.07
G1 F1200 X78.44 Y100.72 E41.41269
G0 F1500 X77.63 Y100.61
G1 F1200 X98.09 Y121.07 E41.65332
G0 F1500 X97.39 Y121.07
G1 F1200 X76.82 Y100.50 E41.89521
G0 F1500 X76.00 Y100.40
G1 F1200 X96.68 Y121.07 E42.13836
G0 F1500 X95.97 Y121.07
G1 F1200 X75.19 Y100.29 E42.38277
G0 F1500 X74.27 Y100.08
G1 F1200 X95.26 Y121.07 E42.62962
G0 F1500 X94.56 Y121.07
G1 F1200 X73.06 Y99.58 E42.88236
G0 F1500 X71.86 Y99.08
G1 F1200 X93.85 Y121.07 E43.14097
G0 F1500 X93.14 Y121.07
G1 F1200 X70.65 Y98.58 E43.40547
G0 F1500 X69.29 Y97.93
G1 F1200 X92.44 Y121.07 E43.67762
G0 F1500 X91.73 Y121.07
G1 F1200 X66.25 Y95.60 E43.97718
G0 F1500 X64.45 Y93.79
G1 F1200 X38.92 Y68.27 E44.27731
G0 F1500 X38.92 Y68.98
G1 F1200 X91.02 Y121.07 E44.88994
G0 F1500 X90.31 Y121.07
G1 F1200 X38.92 Y69.68 E45.49426
G0 F1500 X38.92 Y70.39
G1 F1200 X89.61 Y121.07 E46.09026
G0 F1500 X88.90 Y121.07
G1 F1200 X38.92 Y71.10 E46.67794
G0 F1500 X38.92 Y71.81
G1 F1200 X88.19 Y121.07 E47.25731
G0 F1500 X87.49 Y121.07
G1 F1200 X38.92 Y72.51 E47.82836
G0 F1500 X38.92 Y73.22
G1 F1200 X86.78 Y121.07 E48.39110
G0 F1500 X86.07 Y121.07
G1 F1200 X38.92 Y73.93 E48.94552
G0 F1500 X38.92 Y74.63
G1 F1200 X85.36 Y121.07 E49.49163
G0 F1500 X84.66 Y121.07
G1 F1200 X38.92 Y75.34 E50.02943
G0 F1500 X38.92 Y76.05
G1 F1200 X83.95 Y121.07 E50.55891
G0 F1500 X83.24 Y121.07
G1 F1200 X38.92 Y76.75 E51.08008
G0 F1500 X38.92 Y77.46
G1 F1200 X82.54 Y121.07 E51.59293
G0 F1500 X81.83 Y121.07
G1 F1200 X38.92 Y78.17 E52.09746
G0 F1500 X38.92 Y78.88
G1 F1200 X81.12 Y121.07 E52.59367
G0 F1500 X80.42 Y121.07
G1 F1200 X38.92 Y79.58 E53.08157
G0 F1500 X38.92 Y80.29
G1 F1200 X79.71 Y121.07 E53.56116
G0 F1500 X79.00 Y121.07
G1 F1200 X38.92 Y81.00 E54.03244
G0 F1500 X38.92 Y81.70
G1 F1200 X78.29 Y121.07 E54.49540
G0 F1500 X77.59 Y121.07
G1 F1200 X38.92 Y82.41 E54.95005
G0 F1500 X38.92 Y83.12
G1 F1200 X76.88 Y121.07 E55.39638
G0 F1500 X76.17 Y121.07
G1 F1200 X38.92 Y83.83 E55.83439
G0 F1500 X38.92 Y84.53
G1 F1200 X75.47 Y121.07 E56.26409
G0 F1500 X74.76 Y121.07
G1 F1200 X38.92 Y85.24 E56.68547
G0 F1500 X38.92 Y85.95
G1 F1200 X74.05 Y121.07 E57.09853
G0 F1500 X73.34 Y121.07
G1 F1200 X38.92 Y86.65 E57.50329
G0 F1500 X38.92 Y87.36
G1 F1200 X72.64 Y121.07 E57.89973
G0 F1500 X71.93 Y121.07
G1 F1200 X38.92 Y88.07 E58.28785
G0 F1500 X38.92 Y88.78
G1 F1200 X71.22 Y121.07 E58.66766
G0 F1500 X70.52 Y121.07
G1 F1200 X38.92 Y89.48 E59.03916
G0 F1500 X38.92 Y90.19
G1 F1200 X69.81 Y121.07 E59.40234
G0 F1500 X69.10 Y121.07
G1 F1200 X38.92 Y90.90 E59.75720
G0 F1500 X38.92 Y91.60
G1 F1200 X68.39 Y121.07 E60.10375
G0 F1500 X67.69 Y121.07
G1 F1200 X38.92 Y92.31 E60.44198
G0 F1500 X38.92 Y93.02
G1 F1200 X66.98 Y121.07 E60.77190
G0 F1500 X66.27 Y121.07
G1 F1200 X38.92 Y93.72 E61.09350
G0 F1500 X38.92 Y94.43
G1 F1200 X65.57 Y121.07 E61.40679
G0 F1500 X64.86 Y121.07
G1 F1200 X38.92 Y95.14 E61.71176
G0 F1500 X38.92 Y95.85
G1 F1200 X64.15 Y121.07 E62.00843
G0 F1500 X63.45 Y121.07
G1 F1200 X38.92 Y96.55 E62.29677
G0 F1500 X38.92 Y97.26
G1 F1200 X62.74 Y121.07 E62.57680
G0 F1500 X62.03 Y121.07
G1 F1200 X38.92 Y97.97 E62.84851
G0 F1500 X38.92 Y98.67
G1 F1200 X61.32 Y121.07 E63.11190
G0 F1500 X60.62 Y121.07
G1 F1200 X38.92 Y99.38 E63.36698
G0 F1500 X38.92 Y100.09
G1 F1200 X59.91 Y121.07 E63.61375
G0 F1500 X59.20 Y121.07
G1 F1200 X38.92 Y100.80 E63.85220
G0 F1500 X38.92 Y101.50
G1 F1200 X58.49 Y121.07 E64.08234
G0 F1500 X57.79 Y121.07
G1 F1200 X38.92 Y102.21 E64.30417
G0 F1500 X38.92 Y102.92
G1 F1200 X57.08 Y121.07 E64.51768
G0 F1500 X56.37 Y121.07
G1 F1200 X38.92 Y103.63 E64.72287
G0 F1500 X38.92 Y104.33
G1 F1200 X55.67 Y121.07 E64.91975
G0 F1500 X54.96 Y121.07
G1 F1200 X38.92 Y105.04 E65.10831
G0 F1500 X38.92 Y105.75
G1 F1200 X54.25 Y121.07 E65.28855
G0 F1500 X53.55 Y121.07
G1 F1200 X38.92 Y106.45 E65.46048
G0 F1500 X38.92 Y107.16
G1 F1200 X52.84 Y121.07 E65.62410
G0 F1500 X52.13 Y121.07
G1 F1200 X38.92 Y107.87 E65.77941
G0 F1500 X38.92 Y108.57
G1 F1200 X51.42 Y121.07 E65.92640
G0 F1500 X50.72 Y121.07
G1 F1200 X38.92 Y109.28 E66.06507
G0 F1500 X38.92 Y109.99
G1 F1200 X50.01 Y121.07 E66.19543
G0 F1500 X49.30 Y121.07
G1 F1200 X38.92 Y110.70 E66.31747
G0 F1500 X38.92 Y111.40
G1 F1200 X48.59 Y121.07 E66.43120
G0 F1500 X47.89 Y121.07
G1 F1200 X38.92 Y112.11 E66.53661
G0 F1500 X38.92 Y112.82
G1 F1200 X47.18 Y121.07 E66.63370
G0 F1500 X46.47 Y121.07
G1 F1200 X38.92 Y113.52 E66.72249
G0 F1500 X38.92 Y114.23
G1 F1200 X45.77 Y121.07 E66.80295
G0 F1500 X45.06 Y121.07
G1 F1200 X38.92 Y114.94 E66.87511
G0 F1500 X38.92 Y115.65
G1 F1200 X44.35 Y121.07 E66.93895
G0 F1500 X43.65 Y121.07
G1 F1200 X38.92 Y116.35 E66.99447
G0 F1500 X38.92 Y117.06
G1 F1200 X42.94 Y121.07 E67.04168
G0 F1500 X42.23 Y121.07
G1 F1200 X38.92 Y117.77 E67.08057
G0 F1500 X38.92 Y118.47
G1 F1200 X41.52 Y121.07 E67.11114
G0 F1500 X40.82 Y121.07
G1 F1200 X38.92 Y119.18 E67.13340
G0 F1500 X38.92 Y119.89
G1 F1200 X40.11 Y121.07 E67.14735
G0 F1500 X39.40 Y121.07
G1 F1200 X38.92 Y120.60 E67.15298
G0 F1500 X62.07 Y90.70
G1 F1200 X38.92 Y67.56 E67.42512
G0 F1500 X38.92 Y66.86
G1 F1200 X61.41 Y89.34 E67.68959
G0 F1500 X60.91 Y88.14
G1 F1200 X38.92 Y66.15 E67.94818
G0 F1500 X38.92 Y65.44
G1 F1200 X60.41 Y86.93 E68.20089
G0 F1500 X59.91 Y85.72
G1 F1200 X38.92 Y64.73 E68.44772
G0 F1500 X38.92 Y64.03
G1 F1200 X59.71 Y84.81 E68.69210
G0 F1500 X59.60 Y84.00
G1 F1200 X38.92 Y63.32 E68.93523
G0 F1500 X38.92 Y62.61
G1 F1200 X59.49 Y83.18 E69.17709
G0 F1500 X59.38 Y82.36
G1 F1200 X38.92 Y61.91 E69.41768
G0 F1500 X38.92 Y61.20
G1 F1200 X59.28 Y81.55 E69.65702
G0 F1500 X59.17 Y80.74
