;Generated with Cura_SteamEngine 13.10
M140 S70.000000
M109 T0 S230.000000
T0
M190 S70.000000

;Basic settings: Layer height: 0.3 Walls: 1 Fill: 30
;Print time: #P_TIME#
;Filament used: #F_AMNT#m #F_WGHT#g
;Filament cost: #F_COST#
G21        ;metric values
G90        ;absolute positioning
M107       ;start with the fan off
G28			 ;home
G1 Z200.0 F6000 ;move the platform down to 10mm
G1 X20 Y20 Z10.0 F6000 ;move the platform down to 10mm
G92 E0                  ;zero the extruded length
G1 F200 E5              ;extrude 3mm of feed stock
G92 E0                  ;zero the extruded length again
G1 F6000
M117 Printing...

;total_layers=174
;LAYER:0
M107
G0 F1500 X33.15 Y10.15 Z0.05
;TYPE:SKIRT
G1 F4800 E0.00000
G1 F1200 X34.86 Y8.91 E0.01756
G1 X125.14 Y8.91 E0.76822
G1 X126.85 Y10.15 E0.78578
G1 X154.75 Y96.01 E1.53646
G1 X154.09 Y98.02 E1.55402
G1 X81.06 Y151.09 E2.30470
G1 X78.94 Y151.09 E2.32225
G1 X5.91 Y98.02 E3.07293
G1 X5.25 Y96.01 E3.09049
G1 X33.15 Y10.15 E3.84117
G1 F4800 E-4.15883
G0 F1500 X36.46 Y12.91
;TYPE:WALL-INNER
G1 F4800 E3.84117
G1 F1200 X123.54 Y12.91 E4.56521
G1 X150.45 Y95.73 E5.28926
G1 X80.00 Y146.91 E6.01331
G1 X9.55 Y95.73 E6.73737
G1 X36.46 Y12.91 E7.46142
G0 F1500 X50.45 Y32.57
G1 F1200 X32.42 Y88.04 E7.94635
G1 X32.57 Y88.50 E7.95040
G1 X79.76 Y122.78 E8.43535
G1 X80.24 Y122.78 E8.43940
G1 X127.43 Y88.50 E8.92435
G1 X127.58 Y88.04 E8.92840
G1 X109.55 Y32.57 E9.41333
G1 X109.16 Y32.29 E9.41738
G1 X50.84 Y32.29 E9.90232
G1 X50.45 Y32.57 E9.90637
G0 F1500 X50.87 Y32.88
;TYPE:WALL-OUTER
G1 F1200 X32.95 Y88.04 E10.38860
G1 X33.00 Y88.19 E10.38995
G1 X79.92 Y122.28 E10.87218
G1 X80.08 Y122.28 E10.87354
G1 X127.00 Y88.19 E11.35577
G1 X127.05 Y88.04 E11.35712
G1 X109.13 Y32.88 E11.83936
G1 X109.00 Y32.79 E11.84070
G1 X51.00 Y32.79 E12.32295
G1 X50.87 Y32.88 E12.32429
G0 F1500 X50.54 Y32.77
G0 X36.37 Y12.70
G0 X36.10 Y12.41
G1 F1200 X123.90 Y12.41 E13.05437
G1 X151.04 Y95.92 E13.78447
G1 X80.00 Y147.53 E14.51456
G1 X8.96 Y95.92 E15.24466
G1 X36.10 Y12.41 E15.97476
G0 F1500 X36.77 Y13.09
;TYPE:FILL
G1 F1200 X55.80 Y32.11 E16.19848
G0 F1500 X55.09 Y32.11
G1 F1200 X36.46 Y13.48 E16.41759
G0 F1500 X36.29 Y14.01
G1 F1200 X54.39 Y32.11 E16.63043
G0 F1500 X53.68 Y32.11
G1 F1200 X36.11 Y14.55 E16.83699
G0 F1500 X35.94 Y15.08
G1 F1200 X52.97 Y32.11 E17.03728
G0 F1500 X52.27 Y32.11
G1 F1200 X35.77 Y15.61 E17.23128
G0 F1500 X35.59 Y16.15
G1 F1200 X51.56 Y32.11 E17.41902
G0 F1500 X50.85 Y32.11
G1 F1200 X35.42 Y16.68 E17.60048
G0 F1500 X35.25 Y17.22
G1 F1200 X50.41 Y32.38 E17.77881
G0 F1500 X50.17 Y32.85
G1 F1200 X35.07 Y17.75 E17.95635
G0 F1500 X34.90 Y18.28
G1 F1200 X50.00 Y33.38 E18.13391
G0 F1500 X49.82 Y33.91
G1 F1200 X34.73 Y18.82 E18.31145
G0 F1500 X34.55 Y19.35
G1 F1200 X49.65 Y34.45 E18.48900
G0 F1500 X49.48 Y34.98
G1 F1200 X34.38 Y19.88 E18.66655
G0 F1500 X34.20 Y20.42
G1 F1200 X49.30 Y35.52 E18.84410
G0 F1500 X49.13 Y36.05
G1 F1200 X34.03 Y20.95 E19.02165
G0 F1500 X33.86 Y21.48
G1 F1200 X48.96 Y36.58 E19.19920
G0 F1500 X48.78 Y37.12
G1 F1200 X33.69 Y22.02 E19.37675
G0 F1500 X33.51 Y22.55
G1 F1200 X48.61 Y37.65 E19.55430
G0 F1500 X48.44 Y38.18
G1 F1200 X33.34 Y23.09 E19.73186
G0 F1500 X33.16 Y23.62
G1 F1200 X48.26 Y38.72 E19.90941
G0 F1500 X48.09 Y39.25
G1 F1200 X32.99 Y24.15 E20.08696
G0 F1500 X32.82 Y24.69
G1 F1200 X47.92 Y39.78 E20.26451
G0 F1500 X47.74 Y40.32
G1 F1200 X32.64 Y25.22 E20.44207
G0 F1500 X32.47 Y25.75
G1 F1200 X47.57 Y40.85 E20.61962
G0 F1500 X47.40 Y41.39
G1 F1200 X32.30 Y26.29 E20.79717
G0 F1500 X32.13 Y26.82
G1 F1200 X47.22 Y41.92 E20.97471
G0 F1500 X47.05 Y42.45
G1 F1200 X31.95 Y27.36 E21.15226
G0 F1500 X31.78 Y27.89
G1 F1200 X46.88 Y42.99 E21.32981
G0 F1500 X46.70 Y43.52
G1 F1200 X31.60 Y28.42 E21.50736
G0 F1500 X31.43 Y28.96
G1 F1200 X46.53 Y44.05 E21.68490
G0 F1500 X46.36 Y44.59
G1 F1200 X31.26 Y29.49 E21.86245
G0 F1500 X31.08 Y30.02
G1 F1200 X46.18 Y45.12 E22.04001
G0 F1500 X46.01 Y45.66
G1 F1200 X30.91 Y30.56 E22.21756
G0 F1500 X30.74 Y31.09
G1 F1200 X45.84 Y46.19 E22.39511
G0 F1500 X45.66 Y46.72
G1 F1200 X30.56 Y31.62 E22.57266
G0 F1500 X30.39 Y32.16
G1 F1200 X45.49 Y47.26 E22.75021
G0 F1500 X45.32 Y47.79
G1 F1200 X30.22 Y32.69 E22.92776
G0 F1500 X30.04 Y33.23
G1 F1200 X45.14 Y48.32 E23.10530
G0 F1500 X44.97 Y48.86
G1 F1200 X29.87 Y33.76 E23.28286
G0 F1500 X29.70 Y34.29
G1 F1200 X44.80 Y49.39 E23.46040
G0 F1500 X44.62 Y49.92
G1 F1200 X29.52 Y34.83 E23.63795
G0 F1500 X29.35 Y35.36
G1 F1200 X44.45 Y50.46 E23.81550
G0 F1500 X44.27 Y50.99
G1 F1200 X29.18 Y35.89 E23.99305
G0 F1500 X29.00 Y36.43
G1 F1200 X44.10 Y51.53 E24.17060
G0 F1500 X43.93 Y52.06
G1 F1200 X28.83 Y36.96 E24.34815
G0 F1500 X28.66 Y37.49
G1 F1200 X43.76 Y52.59 E24.52570
G0 F1500 X43.58 Y53.13
G1 F1200 X28.48 Y38.03 E24.70325
G0 F1500 X28.31 Y38.56
G1 F1200 X43.41 Y53.66 E24.88080
G0 F1500 X43.23 Y54.20
G1 F1200 X28.14 Y39.10 E25.05835
G0 F1500 X27.96 Y39.63
G1 F1200 X43.06 Y54.73 E25.23590
G0 F1500 X42.89 Y55.26
G1 F1200 X27.79 Y40.16 E25.41344
G0 F1500 X27.62 Y40.70
G1 F1200 X42.71 Y55.80 E25.59098
G0 F1500 X42.54 Y56.33
G1 F1200 X27.44 Y41.23 E25.76854
G0 F1500 X27.27 Y41.77
G1 F1200 X42.37 Y56.86 E25.94608
G0 F1500 X42.19 Y57.40
G1 F1200 X27.10 Y42.30 E26.12362
G0 F1500 X26.92 Y42.83
G1 F1200 X42.02 Y57.93 E26.30117
G0 F1500 X41.85 Y58.47
G1 F1200 X26.75 Y43.37 E26.47872
G0 F1500 X26.57 Y43.90
G1 F1200 X41.67 Y59.00 E26.65626
G0 F1500 X41.50 Y59.53
G1 F1200 X26.40 Y44.43 E26.83381
G0 F1500 X26.23 Y44.97
G1 F1200 X41.33 Y60.06 E27.01136
G0 F1500 X41.15 Y60.60
G1 F1200 X26.06 Y45.50 E27.18891
G0 F1500 X25.88 Y46.03
G1 F1200 X40.98 Y61.13 E27.36645
G0 F1500 X40.81 Y61.67
G1 F1200 X25.71 Y46.57 E27.54400
G0 F1500 X25.54 Y47.10
G1 F1200 X40.63 Y62.20 E27.72154
G0 F1500 X40.46 Y62.73
G1 F1200 X25.36 Y47.63 E27.89910
G0 F1500 X25.19 Y48.17
G1 F1200 X40.29 Y63.27 E28.07664
G0 F1500 X40.11 Y63.80
G1 F1200 X25.02 Y48.70 E28.25418
G0 F1500 X24.84 Y49.24
G1 F1200 X39.94 Y64.33 E28.43173
G0 F1500 X39.77 Y64.87
G1 F1200 X24.67 Y49.77 E28.60928
G0 F1500 X24.49 Y50.30
G1 F1200 X39.59 Y65.40 E28.78682
G0 F1500 X39.42 Y65.94
G1 F1200 X24.32 Y50.84 E28.96437
G0 F1500 X24.15 Y51.37
G1 F1200 X39.25 Y66.47 E29.14192
G0 F1500 X39.07 Y67.00
G1 F1200 X23.97 Y51.91 E29.31947
G0 F1500 X23.80 Y52.44
G1 F1200 X38.90 Y67.54 E29.49701
G0 F1500 X38.73 Y68.07
G1 F1200 X23.63 Y52.97 E29.67456
G0 F1500 X23.45 Y53.51
G1 F1200 X38.55 Y68.60 E29.85211
G0 F1500 X38.38 Y69.14
G1 F1200 X23.28 Y54.04 E30.02966
G0 F1500 X23.11 Y54.57
G1 F1200 X38.20 Y69.67 E30.20720
G0 F1500 X38.03 Y70.20
G1 F1200 X22.93 Y55.11 E30.38474
G0 F1500 X22.76 Y55.64
G1 F1200 X37.86 Y70.74 E30.56228
G0 F1500 X37.69 Y71.27
G1 F1200 X22.59 Y56.17 E30.73983
G0 F1500 X22.41 Y56.71
G1 F1200 X37.51 Y71.81 E30.91737
G0 F1500 X37.34 Y72.34
G1 F1200 X22.24 Y57.24 E31.09492
G0 F1500 X22.07 Y57.78
G1 F1200 X37.16 Y72.87 E31.27246
G0 F1500 X36.99 Y73.41
G1 F1200 X21.89 Y58.31 E31.45001
G0 F1500 X21.72 Y58.84
G1 F1200 X36.82 Y73.94 E31.62755
G0 F1500 X36.65 Y74.47
G1 F1200 X21.55 Y59.38 E31.80510
G0 F1500 X21.37 Y59.91
G1 F1200 X36.47 Y75.01 E31.98264
G0 F1500 X36.30 Y75.54
G1 F1200 X21.20 Y60.44 E32.16019
G0 F1500 X21.03 Y60.98
G1 F1200 X36.12 Y76.08 E32.33773
G0 F1500 X35.95 Y76.61
G1 F1200 X20.85 Y61.51 E32.51528
G0 F1500 X20.68 Y62.05
G1 F1200 X35.78 Y77.14 E32.69282
G0 F1500 X35.60 Y77.68
G1 F1200 X20.51 Y62.58 E32.87037
G0 F1500 X20.33 Y63.11
G1 F1200 X35.43 Y78.21 E33.04791
G0 F1500 X35.26 Y78.74
G1 F1200 X20.16 Y63.65 E33.22545
G0 F1500 X19.99 Y64.18
G1 F1200 X35.08 Y79.28 E33.40299
G0 F1500 X34.91 Y79.81
G1 F1200 X19.81 Y64.71 E33.58054
G0 F1500 X19.64 Y65.25
G1 F1200 X34.74 Y80.34 E33.75808
G0 F1500 X34.56 Y80.88
G1 F1200 X19.47 Y65.78 E33.93563
G0 F1500 X19.29 Y66.31
G1 F1200 X34.39 Y81.41 E34.11317
G0 F1500 X34.22 Y81.95
G1 F1200 X19.12 Y66.85 E34.29071
G0 F1500 X18.95 Y67.38
G1 F1200 X34.04 Y82.48 E34.46825
G0 F1500 X33.87 Y83.01
G1 F1200 X18.77 Y67.92 E34.64579
G0 F1500 X18.60 Y68.45
G1 F1200 X33.70 Y83.55 E34.82333
G0 F1500 X33.52 Y84.08
G1 F1200 X18.43 Y68.98 E35.00088
G0 F1500 X18.25 Y69.52
G1 F1200 X33.35 Y84.61 E35.17842
G0 F1500 X33.18 Y85.15
G1 F1200 X18.08 Y70.05 E35.35597
G0 F1500 X17.91 Y70.58
G1 F1200 X33.00 Y85.68 E35.53351
G0 F1500 X32.83 Y86.22
G1 F1200 X17.73 Y71.12 E35.71105
G0 F1500 X17.56 Y71.65
G1 F1200 X32.66 Y86.75 E35.88859
G0 F1500 X32.48 Y87.28
G1 F1200 X17.38 Y72.19 E36.06614
G0 F1500 X17.21 Y72.72
G1 F1200 X32.31 Y87.82 E36.24368
G0 F1500 X32.63 Y88.47
G0 X34.90 Y90.41
G1 F1200 X86.48 Y141.99 E36.85016
G0 F1500 X86.07 Y142.28
G1 F1200 X17.04 Y73.25 E37.66191
G0 F1500 X16.86 Y73.79
G1 F1200 X85.66 Y142.58 E38.47089
G0 F1500 X85.25 Y142.88
G1 F1200 X16.69 Y74.32 E39.27709
G0 F1500 X16.52 Y74.85
G1 F1200 X84.84 Y143.18 E40.08050
G0 F1500 X84.43 Y143.47
G1 F1200 X16.34 Y75.39 E40.88114
G0 F1500 X16.17 Y75.92
G1 F1200 X84.02 Y143.77 E41.67901
G0 F1500 X83.61 Y144.07
G1 F1200 X16.00 Y76.45 E42.47410
G0 F1500 X15.82 Y76.99
G1 F1200 X83.20 Y144.37 E43.26642
G0 F1500 X82.79 Y144.66
G1 F1200 X15.65 Y77.52 E44.05595
G0 F1500 X15.48 Y78.06
G1 F1200 X82.38 Y144.96 E44.84270
G0 F1500 X81.97 Y145.26
G1 F1200 X15.30 Y78.59 E45.62669
G0 F1500 X15.13 Y79.12
G1 F1200 X81.56 Y145.56 E46.40790
G0 F1500 X81.15 Y145.85
G1 F1200 X14.96 Y79.66 E47.18633
G0 F1500 X14.78 Y80.19
G1 F1200 X80.75 Y146.15 E47.96198
G0 F1500 X80.33 Y146.45
G1 F1200 X14.61 Y80.72 E48.73485
G0 F1500 X14.44 Y81.26
G1 F1200 X79.53 Y146.36 E49.50036
G0 F1500 X76.95 Y144.48
G1 F1200 X14.26 Y81.79 E50.23749
G0 F1500 X14.09 Y82.33
G1 F1200 X74.36 Y142.60 E50.94624
G0 F1500 X71.78 Y140.72
G1 F1200 X13.92 Y82.86 E51.62663
G0 F1500 X13.74 Y83.39
G1 F1200 X69.19 Y138.84 E52.27866
G0 F1500 X66.60 Y136.96
G1 F1200 X13.57 Y83.93 E52.90230
G0 F1500 X13.40 Y84.46
G1 F1200 X64.02 Y135.08 E53.49757
G0 F1500 X61.43 Y133.20
G1 F1200 X13.22 Y84.99 E54.06448
G0 F1500 X13.05 Y85.53
G1 F1200 X58.85 Y131.32 E54.60301
G0 F1500 X56.26 Y129.44
G1 F1200 X12.88 Y86.06 E55.11317
G0 F1500 X12.70 Y86.59
G1 F1200 X53.67 Y127.57 E55.59497
G0 F1500 X51.09 Y125.69
G1 F1200 X12.53 Y87.13 E56.04840
G0 F1500 X12.36 Y87.66
G1 F1200 X48.50 Y123.81 E56.47345
G0 F1500 X45.91 Y121.93
G1 F1200 X12.18 Y88.20 E56.87012
G0 F1500 X12.01 Y88.73
G1 F1200 X43.33 Y120.05 E57.23843
G0 F1500 X40.74 Y118.17
G1 F1200 X11.84 Y89.26 E57.57838
G0 F1500 X11.66 Y89.80
G1 F1200 X38.16 Y116.29 E57.88994
G0 F1500 X35.57 Y114.41
G1 F1200 X11.49 Y90.33 E58.17313
G0 F1500 X11.32 Y90.86
G1 F1200 X32.98 Y112.54 E58.42795
G0 F1500 X30.40 Y110.66
G1 F1200 X11.14 Y91.40 E58.65441
G0 F1500 X10.97 Y91.93
G1 F1200 X27.81 Y108.78 E58.85249
G0 F1500 X25.23 Y106.90
G1 F1200 X10.80 Y92.47 E59.02220
G0 F1500 X10.62 Y93.00
G1 F1200 X22.64 Y105.02 E59.16354
G0 F1500 X20.05 Y103.14
G1 F1200 X10.45 Y93.53 E59.27650
G0 F1500 X10.27 Y94.07
G1 F1200 X17.47 Y101.26 E59.36110
G0 F1500 X14.88 Y99.38
G1 F1200 X10.10 Y94.60 E59.41734
G0 F1500 X9.93 Y95.13
G1 F1200 X12.30 Y97.50 E59.44518
G0 F1500 X37.49 Y92.29
G1 F1200 X86.89 Y141.69 E60.02606
G0 F1500 X87.30 Y141.39
G1 F1200 X40.08 Y94.17 E60.58136
G0 F1500 X42.66 Y96.05
G1 F1200 X87.71 Y141.09 E61.11107
G0 F1500 X88.12 Y140.80
G1 F1200 X45.25 Y97.92 E61.61519
G0 F1500 X47.83 Y99.80
G1 F1200 X88.53 Y140.50 E62.09373
G0 F1500 X88.94 Y140.20
G1 F1200 X50.42 Y101.68 E62.54666
G0 F1500 X53.00 Y103.56
G1 F1200 X89.34 Y139.90 E62.97400
G0 F1500 X89.75 Y139.61
G1 F1200 X55.59 Y105.44 E63.37576
G0 F1500 X58.17 Y107.32
G1 F1200 X90.16 Y139.31 E63.75193
G0 F1500 X90.57 Y139.01
G1 F1200 X60.76 Y109.20 E64.10251
G0 F1500 X63.35 Y111.08
G1 F1200 X90.98 Y138.71 E64.42750
G0 F1500 X91.39 Y138.41
G1 F1200 X65.93 Y112.95 E64.72690
G0 F1500 X68.52 Y114.83
G1 F1200 X91.80 Y138.12 E65.00071
G0 F1500 X92.21 Y137.82
G1 F1200 X71.10 Y116.71 E65.24893
G0 F1500 X73.69 Y118.59
G1 F1200 X92.62 Y137.52 E65.47156
G0 F1500 X93.03 Y137.22
G1 F1200 X76.27 Y120.47 E65.66861
G0 F1500 X78.86 Y122.35
G1 F1200 X93.44 Y136.93 E65.84006
G0 F1500 X93.85 Y136.63
G1 F1200 X80.18 Y122.96 E66.00083
G0 F1500 X80.64 Y122.71
G1 F1200 X94.26 Y136.33 E66.16101
G0 F1500 X94.67 Y136.04
G1 F1200 X81.05 Y122.41 E66.32120
G0 F1500 X81.46 Y122.11
G1 F1200 X95.08 Y135.74 E66.48138
G0 F1500 X95.49 Y135.44
G1 F1200 X81.87 Y121.82 E66.64156
G0 F1500 X82.28 Y121.52
G1 F1200 X95.90 Y135.14 E66.80173
G0 F1500 X96.31 Y134.85
G1 F1200 X82.69 Y121.22 E66.96191
G0 F1500 X83.09 Y120.93
G1 F1200 X96.72 Y134.55 E67.12209
G0 F1500 X97.13 Y134.25
G1 F1200 X83.50 Y120.63 E67.28226
G0 F1500 X83.91 Y120.33
G1 F1200 X97.54 Y133.95 E67.44245
G0 F1500 X97.94 Y133.65
G1 F1200 X84.32 Y120.03 E67.60263
G0 F1500 X84.73 Y119.74
G1 F1200 X98.36 Y133.36 E67.76281
G0 F1500 X98.77 Y133.06
G1 F1200 X85.14 Y119.44 E67.92299
G0 F1500 X85.55 Y119.14
G1 F1200 X99.17 Y132.76 E68.08317
G0 F1500 X99.58 Y132.46
G1 F1200 X85.96 Y118.84 E68.24335
G0 F1500 X86.37 Y118.55
G1 F1200 X99.99 Y132.17 E68.40353
G0 F1500 X100.40 Y131.87
G1 F1200 X86.78 Y118.25 E68.56371
G0 F1500 X87.19 Y117.95
G1 F1200 X100.81 Y131.57 E68.72389
G0 F1500 X101.22 Y131.27
G1 F1200 X87.60 Y117.65 E68.88407
G0 F1500 X88.01 Y117.35
G1 F1200 X101.63 Y130.98 E69.04425
G0 F1500 X102.04 Y130.68
G1 F1200 X88.42 Y117.06 E69.20443
G0 F1500 X88.83 Y116.76
G1 F1200 X102.45 Y130.38 E69.36460
G0 F1500 X102.86 Y130.08
G1 F1200 X89.24 Y116.46 E69.52478
G0 F1500 X89.65 Y116.16
G1 F1200 X103.27 Y129.79 E69.68497
G0 F1500 X103.68 Y129.49
G1 F1200 X90.06 Y115.87 E69.84515
G0 F1500 X90.47 Y115.57
G1 F1200 X104.09 Y129.19 E70.00533
G0 F1500 X104.50 Y128.89
G1 F1200 X90.88 Y115.27 E70.16550
G0 F1500 X91.29 Y114.97
G1 F1200 X104.91 Y128.60 E70.32568
G0 F1500 X105.32 Y128.30
G1 F1200 X91.70 Y114.68 E70.48585
G0 F1500 X92.11 Y114.38
G1 F1200 X105.73 Y128.00 E70.64604
G0 F1500 X106.14 Y127.70
G1 F1200 X92.52 Y114.08 E70.80622
G0 F1500 X92.92 Y113.78
G1 F1200 X106.55 Y127.41 E70.96640
G0 F1500 X106.96 Y127.11
G1 F1200 X93.33 Y113.49 E71.12657
G0 F1500 X93.74 Y113.19
G1 F1200 X107.36 Y126.81 E71.28675
G0 F1500 X107.78 Y126.51
G1 F1200 X94.15 Y112.89 E71.44694
G0 F1500 X94.56 Y112.59
G1 F1200 X108.18 Y126.22 E71.60712
G0 F1500 X108.59 Y125.92
G1 F1200 X94.97 Y112.30 E71.76729
G0 F1500 X95.38 Y112.00
G1 F1200 X109.00 Y125.62 E71.92747
G0 F1500 X109.41 Y125.32
G1 F1200 X95.79 Y111.70 E72.08765
G0 F1500 X96.20 Y111.40
G1 F1200 X109.82 Y125.03 E72.24783
G0 F1500 X110.23 Y124.73
G1 F1200 X96.61 Y111.11 E72.40801
G0 F1500 X97.02 Y110.81
G1 F1200 X110.64 Y124.43 E72.56819
G0 F1500 X111.05 Y124.13
G1 F1200 X97.43 Y110.51 E72.72836
G0 F1500 X97.84 Y110.21
G1 F1200 X111.46 Y123.83 E72.88854
G0 F1500 X111.87 Y123.54
G1 F1200 X98.25 Y109.92 E73.04872
G0 F1500 X98.66 Y109.62
G1 F1200 X112.28 Y123.24 E73.20891
G0 F1500 X112.69 Y122.94
G1 F1200 X99.07 Y109.32 E73.36909
G0 F1500 X99.48 Y109.02
G1 F1200 X113.10 Y122.64 E73.52926
G0 F1500 X113.51 Y122.35
G1 F1200 X99.89 Y108.73 E73.68943
G0 F1500 X100.30 Y108.43
G1 F1200 X113.92 Y122.05 E73.84962
G0 F1500 X114.33 Y121.75
G1 F1200 X100.71 Y108.13 E74.00980
G0 F1500 X101.11 Y107.83
G1 F1200 X114.74 Y121.45 E74.16998
G0 F1500 X115.15 Y121.16
G1 F1200 X101.52 Y107.54 E74.33016
G0 F1500 X101.94 Y107.24
G1 F1200 X115.56 Y120.86 E74.49033
G0 F1500 X115.97 Y120.56
G1 F1200 X102.34 Y106.94 E74.65052
G0 F1500 X102.75 Y106.64
G1 F1200 X116.38 Y120.26 E74.81070
G0 F1500 X116.79 Y119.97
G1 F1200 X103.16 Y106.35 E74.97088
G0 F1500 X103.57 Y106.05
G1 F1200 X117.19 Y119.67 E75.13106
G0 F1500 X117.60 Y119.37
G1 F1200 X103.98 Y105.75 E75.29124
G0 F1500 X104.39 Y105.45
G1 F1200 X118.01 Y119.07 E75.45142
G0 F1500 X118.42 Y118.78
G1 F1200 X104.80 Y105.16 E75.61160
G0 F1500 X105.21 Y104.86
G1 F1200 X118.83 Y118.48 E75.77178
G0 F1500 X119.24 Y118.18
G1 F1200 X105.62 Y104.56 E75.93196
G0 F1500 X106.03 Y104.26
G1 F1200 X119.65 Y117.88 E76.09214
G0 F1500 X120.06 Y117.59
G1 F1200 X106.44 Y103.97 E76.25231
G0 F1500 X106.85 Y103.67
G1 F1200 X120.47 Y117.29 E76.41250
G0 F1500 X120.88 Y116.99
G1 F1200 X107.26 Y103.37 E76.57268
G0 F1500 X107.67 Y103.07
G1 F1200 X121.29 Y116.69 E76.73286
G0 F1500 X121.70 Y116.40
G1 F1200 X108.08 Y102.77 E76.89304
G0 F1500 X108.49 Y102.48
G1 F1200 X122.11 Y116.10 E77.05322
G0 F1500 X122.52 Y115.80
G1 F1200 X108.90 Y102.18 E77.21339
