;Generated with Cura_SteamEngine 13.10
M140 S70.000000
M109 T0 S230.000000
T0
M190 S70.000000

;Basic settings: Layer height: 0.3 Walls: 1 Fill: 30
;Print time: #P_TIME#
;Filament used: #F_AMNT#m #F_WGHT#g
;Filament cost: #F_COST#
G21        ;metric values
G90        ;absolute positioning
M107       ;start with the fan off
G28			 ;home
G1 Z200.0 F6000 ;move the platform down to 10mm
G1 X20 Y20 Z10.0 F6000 ;move the platform down to 10mm
G92 E0                  ;zero the extruded length
G1 F200 E5              ;extrude 3mm of feed stock
G92 E0                  ;zero the extruded length again
G1 F6000
M117 Printing...

;total_layers=174
;LAYER:0
M107
G0 F1500 X33.15 Y10.15 Z0.05
;TYPE:SKIRT
G1 F4800 E0.00000
G1 F1200 X34.86 Y8.91 E0.01756
G1 X125.14 Y8.91 E0.76822
G1 X126.85 Y10.15 E0.78578
G1 X154.75 Y96.01 E1.53646
G1 X154.09 Y98.02 E1.55402
G1 X81.06 Y151.09 E2.30470
G1 X78.94 Y151.09 E2.32225
G1 X5.91 Y98.02 E3.07293
G1 X5.25 Y96.01 E3.09049
G1 X33.15 Y10.15 E3.84117
G1 F4800 E-4.15883
G0 F1500 X36.46 Y12.91
;TYPE:WALL-INNER
G1 F4800 E3.84117
G1 F1200 X123.54 Y12.91 E4.56521
G1 X150.45 Y95.73 E5.28926
G1 X80.00 Y146.91 E6.01331
G1 X9.55 Y95.73 E6.73737
G1 X36.46 Y12.91 E7.46142
G0 F1500 X36.10 Y12.41
;TYPE:WALL-OUTER
G1 F1200 X123.90 Y12.41 E8.19150
G1 X151.04 Y95.92 E8.92160
G1 X80.00 Y147.53 E9.65169
G1 X8.96 Y95.92 E10.38178
G1 X36.10 Y12.41 E11.11188
G0 F1500 X36.77 Y13.09
;TYPE:FILL
G1 F1200 X132.35 Y108.66 E12.23574
G0 F1500 X131.94 Y108.96
G1 F1200 X36.46 Y13.48 E13.35848
G0 F1500 X36.29 Y14.01
G1 F1200 X131.53 Y109.26 E14.47846
G0 F1500 X131.12 Y109.55
G1 F1200 X36.11 Y14.55 E15.59566
G0 F1500 X35.94 Y15.08
G1 F1200 X130.71 Y109.85 E16.71007
G0 F1500 X130.30 Y110.15
G1 F1200 X35.77 Y15.61 E17.82170
G0 F1500 X35.59 Y16.15
G1 F1200 X129.89 Y110.44 E18.93057
G0 F1500 X129.48 Y110.74
G1 F1200 X35.42 Y16.68 E20.03666
G0 F1500 X35.25 Y17.22
G1 F1200 X129.07 Y111.04 E21.13997
G0 F1500 X128.66 Y111.34
G1 F1200 X35.07 Y17.75 E22.24050
G0 F1500 X34.90 Y18.28
G1 F1200 X128.25 Y111.64 E23.33826
G0 F1500 X127.84 Y111.93
G1 F1200 X34.73 Y18.82 E24.43323
G0 F1500 X34.55 Y19.35
G1 F1200 X127.43 Y112.23 E25.52544
G0 F1500 X127.02 Y112.53
G1 F1200 X34.38 Y19.88 E26.61487
G0 F1500 X34.20 Y20.42
G1 F1200 X126.61 Y112.83 E27.70152
G0 F1500 X126.20 Y113.12
G1 F1200 X34.03 Y20.95 E28.78539
G0 F1500 X33.86 Y21.48
G1 F1200 X125.80 Y113.42 E29.86648
G0 F1500 X125.39 Y113.72
G1 F1200 X33.69 Y22.02 E30.94481
G0 F1500 X33.51 Y22.55
G1 F1200 X124.98 Y114.02 E32.02036
G0 F1500 X124.57 Y114.31
G1 F1200 X33.34 Y23.09 E33.09314
G0 F1500 X33.16 Y23.62
G1 F1200 X124.16 Y114.61 E34.16312
G0 F1500 X123.75 Y114.91
G1 F1200 X32.99 Y24.15 E35.23033
G0 F1500 X32.82 Y24.69
G1 F1200 X123.34 Y115.21 E36.29477
G0 F1500 X122.93 Y115.50
G1 F1200 X32.64 Y25.22 E37.35643
G0 F1500 X32.47 Y25.75
G1 F1200 X122.52 Y115.80 E38.41532
G0 F1500 X122.11 Y116.10
G1 F1200 X32.30 Y26.29 E39.47141
G0 F1500 X32.13 Y26.82
G1 F1200 X121.70 Y116.40 E40.52474
G0 F1500 X121.29 Y116.69
G1 F1200 X31.95 Y27.36 E41.57529
G0 F1500 X31.78 Y27.89
G1 F1200 X120.88 Y116.99 E42.62307
G0 F1500 X120.47 Y117.29
G1 F1200 X31.60 Y28.42 E43.66808
G0 F1500 X31.43 Y28.96
G1 F1200 X120.06 Y117.59 E44.71030
G0 F1500 X119.65 Y117.88
G1 F1200 X31.26 Y29.49 E45.74975
G0 F1500 X31.08 Y30.02
G1 F1200 X119.24 Y118.18 E46.78642
G0 F1500 X118.83 Y118.48
G1 F1200 X30.91 Y30.56 E47.82031
G0 F1500 X30.74 Y31.09
G1 F1200 X118.42 Y118.78 E48.85142
G0 F1500 X118.01 Y119.07
G1 F1200 X30.56 Y31.62 E49.87977
G0 F1500 X30.39 Y32.16
G1 F1200 X117.60 Y119.37 E50.90533
G0 F1500 X117.19 Y119.67
G1 F1200 X30.22 Y32.69 E51.92811
G0 F1500 X30.04 Y33.23
G1 F1200 X116.79 Y119.97 E52.94812
G0 F1500 X116.38 Y120.26
G1 F1200 X29.87 Y33.76 E53.96535
G0 F1500 X29.70 Y34.29
G1 F1200 X115.97 Y120.56 E54.97981
G0 F1500 X115.56 Y120.86
G1 F1200 X29.52 Y34.83 E55.99149
G0 F1500 X29.35 Y35.36
G1 F1200 X115.15 Y121.16 E57.00039
G0 F1500 X114.74 Y121.45
G1 F1200 X29.18 Y35.89 E58.00651
G0 F1500 X29.00 Y36.43
G1 F1200 X114.33 Y121.75 E59.00986
G0 F1500 X113.92 Y122.05
G1 F1200 X28.83 Y36.96 E60.01043
G0 F1500 X28.66 Y37.49
G1 F1200 X113.51 Y122.35 E61.00823
G0 F1500 X113.10 Y122.64
G1 F1200 X28.48 Y38.03 E62.00325
G0 F1500 X28.31 Y38.56
G1 F1200 X112.69 Y122.94 E62.99549
G0 F1500 X112.28 Y123.24
G1 F1200 X28.14 Y39.10 E63.98496
G0 F1500 X27.96 Y39.63
G1 F1200 X111.87 Y123.54 E64.97164
G0 F1500 X111.46 Y123.83
G1 F1200 X27.79 Y40.16 E65.95555
G0 F1500 X27.62 Y40.70
G1 F1200 X111.05 Y124.13 E66.93668
G0 F1500 X110.64 Y124.43
G1 F1200 X27.44 Y41.23 E67.91504
G0 F1500 X27.27 Y41.77
G1 F1200 X110.23 Y124.73 E68.89061
G0 F1500 X109.82 Y125.03
G1 F1200 X27.10 Y42.30 E69.86341
G0 F1500 X26.92 Y42.83
G1 F1200 X109.41 Y125.32 E70.83344
G0 F1500 X109.00 Y125.62
G1 F1200 X26.75 Y43.37 E71.80068
G0 F1500 X26.57 Y43.90
G1 F1200 X108.59 Y125.92 E72.76515
G0 F1500 X108.18 Y126.22
G1 F1200 X26.40 Y44.43 E73.72684
G0 F1500 X26.23 Y44.97
G1 F1200 X107.78 Y126.51 E74.68577
G0 F1500 X107.36 Y126.81
G1 F1200 X26.06 Y45.50 E75.64192
G0 F1500 X25.88 Y46.03
G1 F1200 X106.96 Y127.11 E76.59528
G0 F1500 X106.55 Y127.41
G1 F1200 X25.71 Y46.57 E77.54587
G0 F1500 X25.54 Y47.10
G1 F1200 X106.14 Y127.70 E78.49368
G0 F1500 X105.73 Y128.00
G1 F1200 X25.36 Y47.63 E79.43872
G0 F1500 X25.19 Y48.17
G1 F1200 X105.32 Y128.30 E80.38098
G0 F1500 X104.91 Y128.60
G1 F1200 X25.02 Y48.70 E81.32046
G0 F1500 X24.84 Y49.24
G1 F1200 X104.50 Y128.89 E82.25716
G0 F1500 X104.09 Y129.19
G1 F1200 X24.67 Y49.77 E83.19109
G0 F1500 X24.49 Y50.30
G1 F1200 X103.68 Y129.49 E84.12224
G0 F1500 X103.27 Y129.79
G1 F1200 X24.32 Y50.84 E85.05061
G0 F1500 X24.15 Y51.37
G1 F1200 X102.86 Y130.08 E85.97621
G0 F1500 X102.45 Y130.38
G1 F1200 X23.97 Y51.91 E86.89903
G0 F1500 X23.80 Y52.44
G1 F1200 X102.04 Y130.68 E87.81907
G0 F1500 X101.63 Y130.98
G1 F1200 X23.63 Y52.97 E88.73634
G0 F1500 X23.45 Y53.51
G1 F1200 X101.22 Y131.27 E89.65083
G0 F1500 X100.81 Y131.57
G1 F1200 X23.28 Y54.04 E90.56255
G0 F1500 X23.11 Y54.57
G1 F1200 X100.40 Y131.87 E91.47149
G0 F1500 X99.99 Y132.17
G1 F1200 X22.93 Y55.11 E92.37765
G0 F1500 X22.76 Y55.64
G1 F1200 X99.58 Y132.46 E93.28102
G0 F1500 X99.17 Y132.76
G1 F1200 X22.59 Y56.17 E94.18163
G0 F1500 X22.41 Y56.71
G1 F1200 X98.77 Y133.06 E95.07947
G0 F1500 X98.36 Y133.36
G1 F1200 X22.24 Y57.24 E95.97452
G0 F1500 X22.07 Y57.78
G1 F1200 X97.94 Y133.65 E96.86679
G0 F1500 X97.54 Y133.95
G1 F1200 X21.89 Y58.31 E97.75629
G0 F1500 X21.72 Y58.84
G1 F1200 X97.13 Y134.25 E98.64301
G0 F1500 X96.72 Y134.55
G1 F1200 X21.55 Y59.38 E99.52696
G0 F1500 X21.37 Y59.91
G1 F1200 X96.31 Y134.85 E100.40812
G0 F1500 X95.90 Y135.14
G1 F1200 X21.20 Y60.44 E101.28651
G0 F1500 X21.03 Y60.98
G1 F1200 X95.49 Y135.44 E102.16212
G0 F1500 X95.08 Y135.74
G1 F1200 X20.85 Y61.51 E103.03496
G0 F1500 X20.68 Y62.05
G1 F1200 X94.67 Y136.04 E103.90502
G0 F1500 X94.26 Y136.33
G1 F1200 X20.51 Y62.58 E104.77231
G0 F1500 X20.33 Y63.11
G1 F1200 X93.85 Y136.63 E105.63683
G0 F1500 X93.44 Y136.93
G1 F1200 X20.16 Y63.65 E106.49856
G0 F1500 X19.99 Y64.18
G1 F1200 X93.03 Y137.22 E107.35751
G0 F1500 X92.62 Y137.52
G1 F1200 X19.81 Y64.71 E108.21369
G0 F1500 X19.64 Y65.25
G1 F1200 X92.21 Y137.82 E109.06710
G0 F1500 X91.80 Y138.12
G1 F1200 X19.47 Y65.78 E109.91773
G0 F1500 X19.29 Y66.31
G1 F1200 X91.39 Y138.41 E110.76557
G0 F1500 X90.98 Y138.71
G1 F1200 X19.12 Y66.85 E111.61063
G0 F1500 X18.95 Y67.38
G1 F1200 X90.57 Y139.01 E112.45293
G0 F1500 X90.16 Y139.31
G1 F1200 X18.77 Y67.92 E113.29244
G0 F1500 X18.60 Y68.45
G1 F1200 X89.75 Y139.61 E114.12918
G0 F1500 X89.34 Y139.90
G1 F1200 X18.43 Y68.98 E114.96315
G0 F1500 X18.25 Y69.52
G1 F1200 X88.94 Y140.20 E115.79433
G0 F1500 X88.53 Y140.50
G1 F1200 X18.08 Y70.05 E116.62275
G0 F1500 X17.91 Y70.58
G1 F1200 X88.12 Y140.80 E117.44838
G0 F1500 X87.71 Y141.09
G1 F1200 X17.73 Y71.12 E118.27123
G0 F1500 X17.56 Y71.65
G1 F1200 X87.30 Y141.39 E119.09132
G0 F1500 X86.89 Y141.69
G1 F1200 X17.38 Y72.19 E119.90862
G0 F1500 X17.21 Y72.72
G1 F1200 X86.48 Y141.99 E120.72314
G0 F1500 X86.07 Y142.28
G1 F1200 X17.04 Y73.25 E121.53490
G0 F1500 X16.86 Y73.79
G1 F1200 X85.66 Y142.58 E122.34387
G0 F1500 X85.25 Y142.88
G1 F1200 X16.69 Y74.32 E123.15007
G0 F1500 X16.52 Y74.85
G1 F1200 X84.84 Y143.18 E123.95349
G0 F1500 X84.43 Y143.47
G1 F1200 X16.34 Y75.39 E124.75413
G0 F1500 X16.17 Y75.92
G1 F1200 X84.02 Y143.77 E125.55200
G0 F1500 X83.61 Y144.07
G1 F1200 X16.00 Y76.45 E126.34709
G0 F1500 X15.82 Y76.99
G1 F1200 X83.20 Y144.37 E127.13940
G0 F1500 X82.79 Y144.66
G1 F1200 X15.65 Y77.52 E127.92893
G0 F1500 X15.48 Y78.06
G1 F1200 X82.38 Y144.96 E128.71568
G0 F1500 X81.97 Y145.26
G1 F1200 X15.30 Y78.59 E129.49967
G0 F1500 X15.13 Y79.12
G1 F1200 X81.56 Y145.56 E130.28088
G0 F1500 X81.15 Y145.85
G1 F1200 X14.96 Y79.66 E131.05931
G0 F1500 X14.78 Y80.19
G1 F1200 X80.75 Y146.15 E131.83496
G0 F1500 X80.33 Y146.45
G1 F1200 X14.61 Y80.72 E132.60784
G0 F1500 X14.44 Y81.26
G1 F1200 X79.53 Y146.36 E133.37335
G0 F1500 X76.95 Y144.48
G1 F1200 X14.26 Y81.79 E134.11047
G0 F1500 X14.09 Y82.33
G1 F1200 X74.36 Y142.60 E134.81923
G0 F1500 X71.78 Y140.72
G1 F1200 X13.92 Y82.86 E135.49961
G0 F1500 X13.74 Y83.39
G1 F1200 X69.19 Y138.84 E136.15164
G0 F1500 X66.60 Y136.96
G1 F1200 X13.57 Y83.93 E136.77528
G0 F1500 X13.40 Y84.46
G1 F1200 X64.02 Y135.08 E137.37055
G0 F1500 X61.43 Y133.20
G1 F1200 X13.22 Y84.99 E137.93746
G0 F1500 X13.05 Y85.53
G1 F1200 X58.85 Y131.32 E138.47599
G0 F1500 X56.26 Y129.44
G1 F1200 X12.88 Y86.06 E138.98616
G0 F1500 X12.70 Y86.59
G1 F1200 X53.67 Y127.57 E139.46795
G0 F1500 X51.09 Y125.69
G1 F1200 X12.53 Y87.13 E139.92138
G0 F1500 X12.36 Y87.66
G1 F1200 X48.50 Y123.81 E140.34643
G0 F1500 X45.91 Y121.93
G1 F1200 X12.18 Y88.20 E140.74310
G0 F1500 X12.01 Y88.73
G1 F1200 X43.33 Y120.05 E141.11141
G0 F1500 X40.74 Y118.17
G1 F1200 X11.84 Y89.26 E141.45136
G0 F1500 X11.66 Y89.80
G1 F1200 X38.16 Y116.29 E141.76292
G0 F1500 X35.57 Y114.41
G1 F1200 X11.49 Y90.33 E142.04612
G0 F1500 X11.32 Y90.86
G1 F1200 X32.98 Y112.54 E142.30094
G0 F1500 X30.40 Y110.66
G1 F1200 X11.14 Y91.40 E142.52739
G0 F1500 X10.97 Y91.93
G1 F1200 X27.81 Y108.78 E142.72548
G0 F1500 X25.23 Y106.90
G1 F1200 X10.80 Y92.47 E142.89518
G0 F1500 X10.62 Y93.00
G1 F1200 X22.64 Y105.02 E143.03652
G0 F1500 X20.05 Y103.14
G1 F1200 X10.45 Y93.53 E143.14948
G0 F1500 X10.27 Y94.07
G1 F1200 X17.47 Y101.26 E143.23409
G0 F1500 X14.88 Y99.38
G1 F1200 X10.10 Y94.60 E143.29032
G0 F1500 X9.93 Y95.13
G1 F1200 X12.30 Y97.50 E143.31816
G0 F1500 X37.48 Y13.09
G1 F1200 X132.76 Y108.36 E144.43852
G0 F1500 X133.17 Y108.06
G1 F1200 X38.19 Y13.09 E145.55538
G0 F1500 X38.90 Y13.09
G1 F1200 X133.58 Y107.77 E146.66874
G0 F1500 X133.99 Y107.47
G1 F1200 X39.60 Y13.09 E147.77861
G0 F1500 X40.31 Y13.09
G1 F1200 X134.40 Y107.17 E148.88497
G0 F1500 X134.80 Y106.87
G1 F1200 X41.02 Y13.09 E149.98783
G0 F1500 X41.72 Y13.09
G1 F1200 X135.21 Y106.58 E151.08720
G0 F1500 X135.62 Y106.28
G1 F1200 X42.43 Y13.09 E152.18306
G0 F1500 X43.14 Y13.09
G1 F1200 X136.03 Y105.98 E153.27542
G0 F1500 X136.44 Y105.68
G1 F1200 X43.85 Y13.09 E154.36429
G0 F1500 X44.55 Y13.09
G1 F1200 X136.85 Y105.39 E155.44966
G0 F1500 X137.26 Y105.09
G1 F1200 X45.26 Y13.09 E156.53153
G0 F1500 X45.97 Y13.09
G1 F1200 X137.67 Y104.79 E157.60990
G0 F1500 X138.08 Y104.49
G1 F1200 X46.67 Y13.09 E158.68477
G0 F1500 X47.38 Y13.09
G1 F1200 X138.49 Y104.20 E159.75615
G0 F1500 X138.90 Y103.90
G1 F1200 X48.09 Y13.09 E160.82402
G0 F1500 X48.80 Y13.09
G1 F1200 X139.31 Y103.60 E161.88839
G0 F1500 X139.72 Y103.30
G1 F1200 X49.50 Y13.09 E162.94926
G0 F1500 X50.21 Y13.09
G1 F1200 X140.13 Y103.01 E164.00664
G0 F1500 X140.54 Y102.71
G1 F1200 X50.92 Y13.09 E165.06052
G0 F1500 X51.62 Y13.09
G1 F1200 X140.95 Y102.41 E166.11089
G0 F1500 X141.36 Y102.11
G1 F1200 X52.33 Y13.09 E167.15777
G0 F1500 X53.04 Y13.09
G1 F1200 X141.77 Y101.82 E168.20115
G0 F1500 X142.18 Y101.52
G1 F1200 X53.74 Y13.09 E169.24104
G0 F1500 X54.45 Y13.09
G1 F1200 X142.59 Y101.22 E170.27742
G0 F1500 X143.00 Y100.92
G1 F1200 X55.16 Y13.09 E171.31031
G0 F1500 X55.87 Y13.09
G1 F1200 X143.41 Y100.63 E172.33969
G0 F1500 X143.81 Y100.33
G1 F1200 X56.57 Y13.09 E173.36556
G0 F1500 X57.28 Y13.09
G1 F1200 X144.22 Y100.03 E174.38795
G0 F1500 X144.63 Y99.73
G1 F1200 X57.99 Y13.09 E175.40684
G0 F1500 X58.70 Y13.09
G1 F1200 X145.04 Y99.44 E176.42222
G0 F1500 X145.45 Y99.14
G1 F1200 X59.40 Y13.09 E177.43411
G0 F1500 X60.11 Y13.09
G1 F1200 X145.86 Y98.84 E178.44250
G0 F1500 X146.27 Y98.54
G1 F1200 X60.82 Y13.09 E179.44739
G0 F1500 X61.52 Y13.09
G1 F1200 X146.68 Y98.25 E180.44879
G0 F1500 X147.09 Y97.95
G1 F1200 X62.23 Y13.09 E181.44668
G0 F1500 X62.94 Y13.09
G1 F1200 X147.50 Y97.65 E182.44108
G0 F1500 X147.91 Y97.35
G1 F1200 X63.65 Y13.09 E183.43197
G0 F1500 X64.35 Y13.09
G1 F1200 X148.32 Y97.05 E184.41935
G0 F1500 X148.73 Y96.76
G1 F1200 X65.06 Y13.09 E185.40326
G0 F1500 X65.77 Y13.09
G1 F1200 X149.14 Y96.46 E186.38365
G0 F1500 X149.55 Y96.16
G1 F1200 X66.47 Y13.09 E187.36055
G0 F1500 X67.18 Y13.09
G1 F1200 X149.96 Y95.86 E188.33395
G0 F1500 X150.13 Y95.33
G1 F1200 X67.89 Y13.09 E189.30109
G0 F1500 X68.59 Y13.09
G1 F1200 X149.79 Y94.28 E190.25592
G0 F1500 X149.45 Y93.24
G1 F1200 X69.30 Y13.09 E191.19844
G0 F1500 X70.01 Y13.09
G1 F1200 X149.11 Y92.19 E192.12863
G0 F1500 X148.77 Y91.14
G1 F1200 X70.72 Y13.09 E193.04650
G0 F1500 X71.42 Y13.09
G1 F1200 X148.43 Y90.10 E193.95207
G0 F1500 X148.09 Y89.05
G1 F1200 X72.13 Y13.09 E194.84531
G0 F1500 X72.84 Y13.09
G1 F1200 X147.75 Y88.00 E195.72624
G0 F1500 X147.41 Y86.95
G1 F1200 X73.54 Y13.09 E196.59485
G0 F1500 X74.25 Y13.09
G1 F1200 X147.07 Y85.91 E197.45114
G0 F1500 X146.73 Y84.86
G1 F1200 X74.96 Y13.09 E198.29512
G0 F1500 X75.67 Y13.09
G1 F1200 X146.39 Y83.81 E199.12678
G0 F1500 X146.05 Y82.76
G1 F1200 X76.37 Y13.09 E199.94612
G0 F1500 X77.08 Y13.09
G1 F1200 X145.71 Y81.72 E200.75314
G0 F1500 X145.37 Y80.67
G1 F1200 X77.79 Y13.09 E201.54785
G0 F1500 X78.49 Y13.09
G1 F1200 X145.03 Y79.62 E202.33023
G0 F1500 X144.69 Y78.57
G1 F1200 X79.20 Y13.09 E203.10030
G0 F1500 X79.91 Y13.09
G1 F1200 X144.35 Y77.53 E203.85806
G0 F1500 X144.01 Y76.48
G1 F1200 X80.61 Y13.09 E204.60350
G0 F1500 X81.32 Y13.09
G1 F1200 X143.67 Y75.43 E205.33662
G0 F1500 X143.33 Y74.38
G1 F1200 X82.03 Y13.09 E206.05743
G0 F1500 X82.74 Y13.09
G1 F1200 X142.99 Y73.34 E206.76591
G0 F1500 X142.65 Y72.29
G1 F1200 X83.44 Y13.09 E207.46207
G0 F1500 X84.15 Y13.09
G1 F1200 X142.31 Y71.24 E208.14592
G0 F1500 X141.97 Y70.19
G1 F1200 X84.86 Y13.09 E208.81745
G0 F1500 X85.56 Y13.09
G1 F1200 X141.63 Y69.15 E209.47667
G0 F1500 X141.28 Y68.10
G1 F1200 X86.27 Y13.09 E210.12357
G0 F1500 X86.98 Y13.09
G1 F1200 X140.94 Y67.05 E210.75816
G0 F1500 X140.60 Y66.00
G1 F1200 X87.69 Y13.09 E211.38042
G0 F1500 X88.39 Y13.09
G1 F1200 X140.26 Y64.96 E211.99036
G0 F1500 X139.92 Y63.91
G1 F1200 X89.10 Y13.09 E212.58799
G0 F1500 X89.81 Y13.09
G1 F1200 X139.58 Y62.86 E213.17329
G0 F1500 X139.24 Y61.81
G1 F1200 X90.52 Y13.09 E213.74628
G0 F1500 X91.22 Y13.09
G1 F1200 X138.90 Y60.77 E214.30696
G0 F1500 X138.56 Y59.72
G1 F1200 X91.93 Y13.09 E214.85532
G0 F1500 X92.64 Y13.09
G1 F1200 X138.22 Y58.67 E215.39136
G0 F1500 X137.88 Y57.62
G1 F1200 X93.34 Y13.09 E215.91509
G0 F1500 X94.05 Y13.09
G1 F1200 X137.54 Y56.58 E216.42650
G0 F1500 X137.20 Y55.53
G1 F1200 X94.76 Y13.09 E216.92559
G0 F1500 X95.47 Y13.09
G1 F1200 X136.86 Y54.48 E217.41237
G0 F1500 X136.52 Y53.43
G1 F1200 X96.17 Y13.09 E217.88682
G0 F1500 X96.88 Y13.09
G1 F1200 X136.18 Y52.39 E218.34895
G0 F1500 X135.84 Y51.34
G1 F1200 X97.59 Y13.09 E218.79878
G0 F1500 X98.29 Y13.09
G1 F1200 X135.50 Y50.29 E219.23628
G0 F1500 X135.16 Y49.24
G1 F1200 X99.00 Y13.09 E219.66147
G0 F1500 X99.71 Y13.09
G1 F1200 X134.82 Y48.20 E220.07434
G0 F1500 X134.48 Y47.15
G1 F1200 X100.41 Y13.09 E220.47489
G0 F1500 X101.12 Y13.09
G1 F1200 X134.14 Y46.10 E220.86313
G0 F1500 X133.80 Y45.06
G1 F1200 X101.83 Y13.09 E221.23905
G0 F1500 X102.54 Y13.09
G1 F1200 X133.46 Y44.01 E221.60265
G0 F1500 X133.12 Y42.96
G1 F1200 X103.24 Y13.09 E221.95393
G0 F1500 X103.95 Y13.09
G1 F1200 X132.78 Y41.91 E222.29290
G0 F1500 X132.44 Y40.87
G1 F1200 X104.66 Y13.09 E222.61955
G0 F1500 X105.36 Y13.09
